;FLAVOR:Marlin
;TIME:1307
;Filament used: 0.510647m
;Layer height: 0.2
;MINX:98.823
;MINY:98.601
;MINZ:0.2
;MAXX:131.176
;MAXY:131.188
;MAXZ:30
;Generated with Cura_SteamEngine 4.12.1
M140 S60
M105
M190 S60
M104 S200
M105
M109 S200
M82 ;absolute extrusion mode
; Ender 3 Custom Start G-code
G92 E0 ; Reset Extruder
G28 ; Home all axes
G1 Z2.0 F3000 ; Move Z Axis up little to prevent scratching of Heat Bed
G1 X0.1 Y20 Z0.3 F5000.0 ; Move to start position
G1 X0.1 Y200.0 Z0.3 F1500.0 E15 ; Draw the first line
G1 X0.4 Y200.0 Z0.3 F5000.0 ; Move to side a little
G1 X0.4 Y20 Z0.3 F1500.0 E30 ; Draw the second line
G92 E0 ; Reset Extruder
G1 Z2.0 F3000 ; Move Z Axis up little to prevent scratching of Heat Bed
G1 X5 Y20 Z0.3 F5000.0 ; Move over to prevent blob squish
G92 E0
G92 E0
G1 F1500 E-6.5
;LAYER_COUNT:150
;LAYER:0
M107
G0 F6000 X104.783 Y102.399 Z0.2
;TYPE:SKIRT
G1 F1500 E0
G1 F1200 X105.486 Y101.778 E0.0312
G1 X106.239 Y101.219 E0.06239
G1 X107.037 Y100.726 E0.09359
G1 X107.916 Y100.284 E0.12631
G1 X108.157 Y100.176 E0.1351
G1 X108.688 Y99.954 E0.15424
G1 X108.988 Y99.838 E0.16494
G1 X109.296 Y99.725 E0.17585
G1 X109.639 Y99.604 E0.18795
G1 X110.216 Y99.417 E0.20812
G1 X110.939 Y99.206 E0.23317
G1 X111.242 Y99.123 E0.24362
G1 X111.602 Y99.029 E0.25599
G1 X111.886 Y98.959 E0.26572
G1 X112.208 Y98.884 E0.27672
G1 X113.129 Y98.71 E0.30789
G1 X114.062 Y98.616 E0.33908
G1 X115 Y98.601 E0.37028
G1 X115.936 Y98.666 E0.40149
G1 X116.862 Y98.811 E0.43266
G1 X117.773 Y99.034 E0.46386
G1 X118.662 Y99.334 E0.49507
G1 X119.522 Y99.709 E0.52627
G1 X120.048 Y99.983 E0.546
G1 X120.37 Y100.162 E0.55825
G1 X121.433 Y100.835 E0.6001
G1 X122.172 Y101.412 E0.63128
G1 X122.689 Y101.882 E0.65452
G1 X123.39 Y102.562 E0.687
G1 X124.133 Y103.302 E0.72188
G1 X125.98 Y105.039 E0.80621
G1 X126.881 Y105.843 E0.84637
G1 X127.345 Y106.269 E0.86732
G1 X128.007 Y106.933 E0.89851
G1 X128.865 Y107.996 E0.94394
G1 X128.938 Y108.099 E0.94814
G1 X129.2 Y108.486 E0.96369
G1 X129.319 Y108.67 E0.97098
G1 X129.794 Y109.479 E1.00218
G1 X130.199 Y110.325 E1.03337
G1 X130.53 Y111.202 E1.06455
G1 X130.785 Y112.105 E1.09576
G1 X130.957 Y112.989 E1.12571
G1 X130.978 Y113.127 E1.13036
G1 X131.042 Y113.628 E1.14715
G1 X131.065 Y113.846 E1.15445
G1 X131.094 Y114.163 E1.16503
G1 X131.144 Y114.818 E1.18688
G1 X131.176 Y115.755 E1.21806
G1 X131.155 Y116.341 E1.23757
G1 X131.124 Y116.748 E1.25114
G1 X131.054 Y117.484 E1.27573
G1 X130.925 Y118.414 E1.30696
G1 X130.724 Y119.305 E1.33734
G1 X130.589 Y119.806 E1.3546
G1 X130.501 Y120.116 E1.36532
G1 X130.42 Y120.385 E1.37466
G1 X130.111 Y121.27 E1.40584
G1 X129.729 Y122.126 E1.43702
G1 X129.274 Y122.947 E1.46824
G1 X128.752 Y123.726 E1.49942
G1 X128.165 Y124.457 E1.53061
G1 X127.55 Y125.105 E1.56032
G1 X127.026 Y125.612 E1.58457
G1 X125.887 Y126.688 E1.63669
G1 X125.614 Y126.959 E1.64948
G1 X124.796 Y127.752 E1.68737
G1 X124.095 Y128.375 E1.71856
G1 X123.344 Y128.937 E1.74976
G1 X122.548 Y129.433 E1.78096
G1 X121.682 Y129.872 E1.81325
G1 X121.435 Y129.984 E1.82227
G1 X120.565 Y130.335 E1.85347
G1 X119.642 Y130.617 E1.88557
G1 X119.092 Y130.759 E1.90447
G1 X118.175 Y130.954 E1.93565
G1 X117.297 Y131.066 E1.96509
G1 X116.379 Y131.146 E1.99573
G1 X115.442 Y131.188 E2.02693
G1 X114.51 Y131.15 E2.05795
G1 X113.922 Y131.101 E2.07758
G1 X112.992 Y130.983 E2.10876
G1 X112.093 Y130.792 E2.13933
G1 X111.293 Y130.586 E2.1668
G1 X110.808 Y130.449 E2.18357
G1 X110.707 Y130.418 E2.18708
G1 X109.758 Y130.078 E2.22061
G1 X109.568 Y130 E2.22744
G1 X109.257 Y129.867 E2.23869
G1 X109.031 Y129.766 E2.24692
G1 X108.192 Y129.347 E2.27811
G1 X107.391 Y128.858 E2.30933
G1 X106.537 Y128.223 E2.34472
G1 X106.509 Y128.2 E2.34593
G1 X105.773 Y127.538 E2.37885
G1 X104.893 Y126.671 E2.41994
G1 X104.377 Y126.15 E2.44433
G1 X102.988 Y124.814 E2.50843
G1 X102.806 Y124.643 E2.51674
G1 X102.15 Y123.972 E2.54795
G1 X101.554 Y123.248 E2.57914
G1 X101.111 Y122.614 E2.60486
G1 X101.013 Y122.463 E2.61085
G1 X100.536 Y121.656 E2.64203
G1 X100.13 Y120.81 E2.67324
G1 X99.764 Y119.831 E2.708
G1 X99.682 Y119.575 E2.71694
G1 X99.61 Y119.34 E2.72512
G1 X99.381 Y118.566 E2.75196
G1 X99.153 Y117.656 E2.78317
G1 X99.044 Y117.028 E2.80437
G1 X99.028 Y116.918 E2.80806
G1 X98.972 Y116.476 E2.82288
G1 X98.926 Y116.035 E2.83763
G1 X98.899 Y115.735 E2.84765
G1 X98.855 Y115.161 E2.86679
G1 X98.823 Y114.223 E2.89801
G1 X98.848 Y113.586 E2.91921
G1 X98.866 Y113.317 E2.92818
G1 X98.89 Y113.01 E2.93842
G1 X98.923 Y112.663 E2.95002
G1 X99.052 Y111.734 E2.98121
G1 X99.259 Y110.819 E3.01241
G1 X99.543 Y109.925 E3.04361
G1 X99.903 Y109.059 E3.07481
G1 X100.335 Y108.226 E3.10602
G1 X100.836 Y107.434 E3.13719
G1 X101.178 Y106.967 E3.15644
G1 X101.435 Y106.635 E3.1704
G1 X102.949 Y104.627 E3.25404
G1 X103.549 Y103.81 E3.28776
G1 X104.136 Y103.078 E3.31897
G1 X104.783 Y102.399 E3.35016
G0 F6000 X105.085 Y102.664
G1 F1200 X105.777 Y102.057 E3.38078
G1 X106.519 Y101.512 E3.4114
G1 X107.306 Y101.034 E3.44202
G1 X108.079 Y100.649 E3.47075
G1 X108.32 Y100.541 E3.47953
G1 X108.832 Y100.327 E3.49799
G1 X109.132 Y100.211 E3.50868
G1 X109.429 Y100.102 E3.51921
G1 X109.772 Y99.981 E3.5313
G1 X110.328 Y99.801 E3.55074
G1 X111.051 Y99.59 E3.57579
G1 X111.343 Y99.51 E3.58586
G1 X111.703 Y99.416 E3.59824
G1 X111.976 Y99.348 E3.60759
G1 X112.298 Y99.273 E3.61859
G1 X113.203 Y99.104 E3.64921
G1 X114.119 Y99.013 E3.67983
G1 X115.04 Y99.002 E3.71046
G1 X115.958 Y99.072 E3.74108
G1 X116.867 Y99.22 E3.77172
G1 X117.759 Y99.447 E3.80233
G1 X118.628 Y99.751 E3.83295
G1 X119.853 Y100.332 E3.87804
G1 X120.175 Y100.511 E3.8903
G1 X121.2 Y101.16 E3.93065
G1 X121.925 Y101.728 E3.96128
G1 X122.411 Y102.169 E3.98311
G1 X123.108 Y102.845 E4.0154
G1 X123.878 Y103.612 E4.05155
G1 X125.682 Y105.309 E4.13393
G1 X126.615 Y106.141 E4.17551
G1 X127.074 Y106.563 E4.19624
G1 X127.723 Y107.215 E4.22684
G1 X128.538 Y108.228 E4.27008
G1 X128.611 Y108.331 E4.27428
G1 X128.864 Y108.704 E4.28927
G1 X128.983 Y108.888 E4.29656
G1 X129.449 Y109.682 E4.32718
G1 X129.844 Y110.513 E4.35779
G1 X130.166 Y111.376 E4.38842
G1 X130.411 Y112.263 E4.41903
G1 X130.561 Y113.049 E4.44564
G1 X130.582 Y113.187 E4.45029
G1 X130.644 Y113.67 E4.46648
G1 X130.667 Y113.888 E4.47377
G1 X130.695 Y114.193 E4.48396
G1 X130.745 Y114.848 E4.50581
G1 X130.775 Y115.768 E4.53642
G1 X130.755 Y116.318 E4.55473
G1 X130.725 Y116.711 E4.56784
G1 X130.655 Y117.447 E4.59243
G1 X130.528 Y118.358 E4.62302
G1 X130.338 Y119.201 E4.65176
G1 X130.203 Y119.702 E4.66902
G1 X130.118 Y120 E4.67933
G1 X130.037 Y120.269 E4.68867
G1 X129.733 Y121.138 E4.71929
G1 X129.356 Y121.978 E4.74992
G1 X128.906 Y122.782 E4.78056
G1 X128.389 Y123.543 E4.81116
G1 X127.808 Y124.257 E4.84178
G1 X127.271 Y124.818 E4.86761
G1 X126.752 Y125.321 E4.89164
G1 X125.621 Y126.389 E4.94338
G1 X125.335 Y126.672 E4.95676
G1 X124.517 Y127.465 E4.99466
G1 X123.829 Y128.076 E5.02526
G1 X123.09 Y128.626 E5.0559
G1 X122.307 Y129.109 E5.0865
G1 X121.516 Y129.508 E5.11597
G1 X121.269 Y129.62 E5.12499
G1 X120.415 Y129.963 E5.1556
G1 X119.542 Y130.229 E5.18595
G1 X118.992 Y130.371 E5.20484
G1 X118.091 Y130.563 E5.23548
G1 X117.262 Y130.668 E5.26328
G1 X116.344 Y130.748 E5.29392
G1 X115.424 Y130.788 E5.32455
G1 X114.544 Y130.751 E5.35385
G1 X113.956 Y130.702 E5.37347
G1 X113.042 Y130.586 E5.40412
G1 X112.193 Y130.404 E5.433
G1 X111.393 Y130.198 E5.46047
G1 X110.926 Y130.066 E5.47661
G1 X110.825 Y130.035 E5.48013
G1 X109.909 Y129.708 E5.51248
G1 X109.719 Y129.63 E5.51931
G1 X109.42 Y129.502 E5.53013
G1 X109.194 Y129.401 E5.53836
G1 X108.371 Y128.989 E5.56897
G1 X107.586 Y128.507 E5.59961
G1 X106.791 Y127.914 E5.6326
G1 X106.763 Y127.891 E5.6338
G1 X106.054 Y127.253 E5.66552
G1 X105.178 Y126.389 E5.70645
G1 X104.697 Y125.903 E5.72919
G1 X103.174 Y124.439 E5.79945
G1 X103.08 Y124.351 E5.80374
G1 X102.437 Y123.692 E5.83436
G1 X101.853 Y122.98 E5.86499
G1 X101.446 Y122.397 E5.88864
G1 X101.348 Y122.246 E5.89462
G1 X100.881 Y121.452 E5.92526
G1 X100.485 Y120.622 E5.95585
G1 X100.145 Y119.708 E5.98828
G1 X100.063 Y119.452 E5.99722
G1 X99.994 Y119.226 E6.00508
G1 X99.765 Y118.452 E6.03193
G1 X99.542 Y117.559 E6.06254
G1 X99.439 Y116.971 E6.0824
G1 X99.423 Y116.861 E6.08609
G1 X99.37 Y116.435 E6.10037
G1 X99.324 Y115.994 E6.11512
G1 X99.298 Y115.704 E6.1248
G1 X99.254 Y115.13 E6.14395
G1 X99.224 Y114.21 E6.17457
G1 X99.247 Y113.612 E6.19447
G1 X99.265 Y113.343 E6.20344
G1 X99.289 Y113.047 E6.21332
G1 X99.322 Y112.7 E6.22491
G1 X99.448 Y111.789 E6.2555
G1 X99.654 Y110.891 E6.28614
G1 X99.937 Y110.015 E6.31676
G1 X100.294 Y109.167 E6.34736
G1 X100.724 Y108.352 E6.37801
G1 X101.494 Y107.212 E6.42377
G1 X101.8 Y106.817 E6.44038
G1 X103.196 Y104.965 E6.51752
G1 X103.871 Y104.046 E6.55545
G1 X104.448 Y103.329 E6.58606
G1 X105.085 Y102.664 E6.61668
G0 F6000 X105.386 Y102.929
G1 F1200 X106.068 Y102.337 E6.64672
G1 X106.799 Y101.807 E6.67675
G1 X107.574 Y101.343 E6.7068
G1 X108.243 Y101.014 E6.73159
G1 X108.484 Y100.906 E6.74038
G1 X108.976 Y100.7 E6.75812
G1 X109.276 Y100.584 E6.76881
G1 X109.562 Y100.479 E6.77895
G1 X109.905 Y100.358 E6.79105
G1 X110.44 Y100.185 E6.80975
G1 X111.163 Y99.974 E6.8348
G1 X111.444 Y99.897 E6.84449
G1 X111.804 Y99.803 E6.85686
G1 X112.067 Y99.738 E6.86587
G1 X112.389 Y99.663 E6.87687
G1 X113.277 Y99.497 E6.90692
G1 X114.176 Y99.411 E6.93695
G1 X115.079 Y99.404 E6.96699
G1 X115.979 Y99.477 E6.99702
G1 X116.869 Y99.63 E7.02706
G1 X117.742 Y99.86 E7.05708
G1 X118.592 Y100.167 E7.08714
G1 X119.659 Y100.682 E7.12655
G1 X119.981 Y100.861 E7.1388
G1 X120.968 Y101.486 E7.17766
G1 X121.679 Y102.043 E7.2077
G1 X122.133 Y102.457 E7.22813
G1 X122.826 Y103.129 E7.26024
G1 X123.587 Y103.886 E7.29594
G1 X125.426 Y105.616 E7.37992
G1 X126.471 Y106.551 E7.42656
G1 X126.803 Y106.857 E7.44157
G1 X127.439 Y107.498 E7.47161
G1 X128.212 Y108.459 E7.51263
G1 X128.285 Y108.562 E7.51683
G1 X128.528 Y108.921 E7.53124
G1 X128.647 Y109.105 E7.53853
G1 X129.103 Y109.884 E7.56855
G1 X129.489 Y110.701 E7.59861
G1 X129.801 Y111.548 E7.62863
G1 X130.037 Y112.42 E7.65868
G1 X130.166 Y113.109 E7.68199
G1 X130.187 Y113.247 E7.68663
G1 X130.247 Y113.712 E7.70223
G1 X130.27 Y113.93 E7.70952
G1 X130.296 Y114.224 E7.71934
G1 X130.346 Y114.879 E7.74118
G1 X130.375 Y115.781 E7.7712
G1 X130.356 Y116.294 E7.78827
G1 X130.327 Y116.673 E7.80092
G1 X130.257 Y117.409 E7.82551
G1 X130.132 Y118.303 E7.85553
G1 X129.952 Y119.097 E7.88261
G1 X129.817 Y119.598 E7.89987
G1 X129.735 Y119.885 E7.90979
G1 X129.654 Y120.154 E7.91914
G1 X129.355 Y121.006 E7.94917
G1 X128.983 Y121.829 E7.97921
G1 X128.539 Y122.615 E8.00924
G1 X128.027 Y123.36 E8.0393
G1 X127.451 Y124.055 E8.06932
G1 X126.992 Y124.531 E8.09132
G1 X126.477 Y125.03 E8.11517
G1 X125.339 Y126.105 E8.16724
G1 X125.057 Y126.385 E8.18045
G1 X124.239 Y127.178 E8.21835
G1 X123.563 Y127.777 E8.24839
G1 X122.837 Y128.314 E8.27842
G1 X122.066 Y128.785 E8.30847
G1 X121.351 Y129.144 E8.33508
G1 X121.104 Y129.256 E8.3441
G1 X120.266 Y129.592 E8.37413
G1 X119.442 Y129.842 E8.40277
G1 X118.892 Y129.984 E8.42166
G1 X118.008 Y130.171 E8.45172
G1 X117.228 Y130.269 E8.47786
G1 X116.31 Y130.349 E8.50851
G1 X115.407 Y130.388 E8.53857
G1 X114.577 Y130.353 E8.5662
G1 X113.989 Y130.304 E8.58583
G1 X113.093 Y130.189 E8.61587
G1 X112.292 Y130.017 E8.64312
G1 X111.492 Y129.811 E8.6706
G1 X111.043 Y129.684 E8.68612
G1 X110.942 Y129.653 E8.68963
G1 X110.061 Y129.338 E8.72075
G1 X109.871 Y129.26 E8.72758
G1 X109.583 Y129.136 E8.73801
G1 X109.357 Y129.035 E8.74625
G1 X108.55 Y128.631 E8.77626
G1 X107.781 Y128.156 E8.80632
G1 X107.045 Y127.605 E8.8369
G1 X107.017 Y127.582 E8.83811
G1 X106.335 Y126.968 E8.86863
G1 X105.462 Y126.108 E8.90939
G1 X104.955 Y125.596 E8.93336
G1 X103.503 Y124.2 E9.00035
G1 X103.354 Y124.06 E9.00715
G1 X102.724 Y123.413 E9.03718
G1 X102.153 Y122.713 E9.06723
G1 X101.782 Y122.179 E9.08886
G1 X101.684 Y122.028 E9.09484
G1 X101.226 Y121.249 E9.1249
G1 X100.839 Y120.433 E9.15494
G1 X100.526 Y119.586 E9.18497
G1 X100.377 Y119.113 E9.20147
G1 X100.148 Y118.339 E9.22831
G1 X99.93 Y117.462 E9.25837
G1 X99.835 Y116.913 E9.2769
G1 X99.819 Y116.803 E9.2806
G1 X99.768 Y116.393 E9.29434
G1 X99.722 Y115.952 E9.30909
G1 X99.697 Y115.674 E9.31837
G1 X99.653 Y115.1 E9.33752
G1 X99.624 Y114.197 E9.36757
G1 X99.646 Y113.639 E9.38614
G1 X99.664 Y113.37 E9.39511
G1 X99.687 Y113.085 E9.40462
G1 X99.72 Y112.738 E9.41621
G1 X99.845 Y111.844 E9.44623
G1 X100.049 Y110.964 E9.47628
G1 X100.33 Y110.106 E9.50631
G1 X100.685 Y109.276 E9.53633
G1 X101.113 Y108.48 E9.56639
G1 X101.811 Y107.457 E9.60758
G1 X102.067 Y107.126 E9.6215
G1 X103.557 Y105.151 E9.70379
G1 X104.194 Y104.283 E9.7396
G1 X104.76 Y103.58 E9.76961
G1 X105.386 Y102.929 E9.79965
G1 F1500 E3.29965
G0 F6000 X113.766 Y109.222
G0 X114.3 Y109.901
;TYPE:SUPPORT-INTERFACE
G1 F1500 E9.79965
G1 F1200 X114.313 Y109.89 E9.80022
G1 X114.684 Y109.798 E9.81293
G1 X114.789 Y109.859 E9.81697
G1 X114.454 Y109.888 E9.82816
G1 X114.454 Y109.88 E9.82842
G1 X114.3 Y109.901 E9.83359
G1 F1500 E3.33359
;MESH:Temp Pin.STL
G0 F6000 X114.554 Y112.307
G0 X113.208 Y113.438
G0 X112.788 Y114.127
G0 X112.624 Y114.901
G0 X112.727 Y115.699
G0 X113.088 Y116.414
G0 X113.613 Y116.916
G0 X114.802 Y117.541
;TYPE:WALL-INNER
G1 F1500 E9.83359
G1 F1200 X114.366 Y117.47 E9.84828
G1 X113.954 Y117.324 E9.86282
G1 X113.579 Y117.116 E9.87708
G1 X113.249 Y116.852 E9.89114
G1 X112.961 Y116.529 E9.90553
G1 X112.94 Y116.5 E9.90672
G1 X112.736 Y116.17 E9.91963
G1 X112.564 Y115.751 E9.93469
G1 X112.472 Y115.326 E9.94916
G1 X112.454 Y114.905 E9.96317
G1 X112.455 Y114.875 E9.96417
G1 X112.506 Y114.471 E9.97771
G1 X112.629 Y114.063 E9.99189
G1 X112.823 Y113.675 E10.00632
G1 X112.838 Y113.651 E10.00726
G1 X113.076 Y113.328 E10.0206
G1 X113.092 Y113.31 E10.0214
G1 X113.389 Y113.026 E10.03507
G1 X113.413 Y113.007 E10.03609
G1 X113.75 Y112.778 E10.04964
G1 X114.149 Y112.597 E10.06421
G1 X114.564 Y112.489 E10.07847
G1 X115.001 Y112.452 E10.09306
G1 X115.43 Y112.488 E10.10738
G1 X115.851 Y112.597 E10.12184
G1 X116.242 Y112.774 E10.13612
G1 X116.592 Y113.009 E10.15014
G1 X116.911 Y113.313 E10.1648
G1 X117.169 Y113.661 E10.17921
G1 X117.364 Y114.046 E10.19356
G1 X117.488 Y114.446 E10.20749
G1 X117.546 Y114.877 E10.22195
G1 X117.53 Y115.307 E10.23626
G1 X117.443 Y115.722 E10.25037
G1 X117.431 Y115.761 E10.25172
G1 X117.275 Y116.148 E10.2656
G1 X117.047 Y116.519 E10.28009
G1 X116.779 Y116.826 E10.29364
G1 X116.437 Y117.105 E10.30832
G1 X116.424 Y117.114 E10.30885
G1 X116.054 Y117.321 E10.32295
G1 X115.65 Y117.466 E10.33722
G1 X115.228 Y117.539 E10.35147
G1 X114.802 Y117.541 E10.36564
G0 F6000 X114.778 Y117.941
;TYPE:WALL-OUTER
G1 F1200 X114.722 Y117.935 E10.36751
G1 X114.284 Y117.862 E10.38228
G1 X114.239 Y117.849 E10.38384
G1 X113.809 Y117.698 E10.39899
G1 X113.767 Y117.678 E10.40054
G1 X113.372 Y117.459 E10.41556
G1 X113.325 Y117.426 E10.41747
G1 X112.976 Y117.146 E10.43236
G1 X112.947 Y117.116 E10.43374
G1 X112.642 Y116.772 E10.44903
G1 X112.613 Y116.731 E10.4507
G1 X112.381 Y116.355 E10.4654
G1 X112.355 Y116.3 E10.46742
G1 X112.188 Y115.889 E10.48218
G1 X112.172 Y115.834 E10.48408
G1 X112.079 Y115.404 E10.49872
G1 X112.072 Y115.343 E10.50076
G1 X112.053 Y114.905 E10.51534
G1 X112.056 Y114.845 E10.51734
G1 X112.111 Y114.406 E10.53205
G1 X112.122 Y114.353 E10.53385
G1 X112.252 Y113.927 E10.54867
G1 X112.271 Y113.884 E10.55023
G1 X112.473 Y113.48 E10.56525
G1 X112.506 Y113.428 E10.5673
G1 X112.767 Y113.073 E10.58196
G1 X112.808 Y113.028 E10.58398
G1 X113.126 Y112.723 E10.59864
G1 X113.172 Y112.687 E10.60058
G1 X113.537 Y112.439 E10.61526
G1 X113.578 Y112.417 E10.61681
G1 X113.99 Y112.229 E10.63187
G1 X114.047 Y112.21 E10.63387
G1 X114.476 Y112.097 E10.64862
G1 X114.525 Y112.09 E10.65027
G1 X114.999 Y112.05 E10.66609
G1 X115.47 Y112.088 E10.68181
G1 X115.515 Y112.097 E10.68333
G1 X115.963 Y112.212 E10.69872
G1 X116.006 Y112.228 E10.70024
G1 X116.413 Y112.411 E10.71508
G1 X116.453 Y112.434 E10.71662
G1 X116.83 Y112.687 E10.73172
G1 X116.866 Y112.717 E10.73328
G1 X117.195 Y113.03 E10.74838
G1 X117.232 Y113.074 E10.75029
G1 X117.495 Y113.427 E10.76493
G1 X117.526 Y113.48 E10.76698
G1 X117.725 Y113.872 E10.7816
