;FLAVOR:Marlin
;TIME:3573
;Filament used: 1.49948m
;Layer height: 0.2
;MINX:81.022
;MINY:93.021
;MINZ:0.2
;MAXX:148.979
;MAXY:136.979
;MAXZ:13
;Generated with Cura_SteamEngine 4.12.1
M140 S60
M105
M190 S60
M104 S200
M105
M109 S200
M82 ;absolute extrusion mode
; Ender 3 Custom Start G-code
G92 E0 ; Reset Extruder
G28 ; Home all axes
G1 Z2.0 F3000 ; Move Z Axis up little to prevent scratching of Heat Bed
G1 X0.1 Y20 Z0.3 F5000.0 ; Move to start position
G1 X0.1 Y200.0 Z0.3 F1500.0 E15 ; Draw the first line
G1 X0.4 Y200.0 Z0.3 F5000.0 ; Move to side a little
G1 X0.4 Y20 Z0.3 F1500.0 E30 ; Draw the second line
G92 E0 ; Reset Extruder
G1 Z2.0 F3000 ; Move Z Axis up little to prevent scratching of Heat Bed
G1 X5 Y20 Z0.3 F5000.0 ; Move over to prevent blob squish
G92 E0
G92 E0
G1 F1500 E-6.5
;LAYER_COUNT:65
;LAYER:0
M107
G0 F6000 X86.813 Y100.062 Z0.2
;TYPE:SKIRT
G1 F1500 E0
G1 F1200 X87.764 Y99.257 E0.04144
G1 X88.267 Y98.878 E0.06239
G1 X88.56 Y98.665 E0.07444
G1 X88.944 Y98.395 E0.09005
G1 X89.432 Y98.071 E0.10953
G1 X90.006 Y97.712 E0.13205
G1 X92.201 Y96.296 E0.21893
G1 X93.209 Y95.611 E0.25946
G1 X93.612 Y95.346 E0.27551
G1 X94.419 Y94.868 E0.3067
G1 X94.937 Y94.607 E0.32599
G1 X95.056 Y94.551 E0.33037
G1 X95.921 Y94.188 E0.36157
G1 X96.698 Y93.933 E0.38877
G1 X97.221 Y93.785 E0.40685
G1 X97.553 Y93.7 E0.41824
G1 X98.228 Y93.537 E0.44134
G1 X98.799 Y93.415 E0.46076
G1 X99.084 Y93.362 E0.4704
G1 X99.493 Y93.294 E0.48419
G1 X99.708 Y93.262 E0.49142
G1 X100.443 Y93.162 E0.51609
G1 X101.132 Y93.091 E0.53913
G1 X101.505 Y93.064 E0.55157
G1 X101.924 Y93.041 E0.56553
G1 X102.452 Y93.023 E0.5831
G1 X103.129 Y93.021 E0.60562
G1 X104.075 Y93.047 E0.63709
G1 X104.849 Y93.096 E0.66289
G1 X106.182 Y93.227 E0.70744
G1 X108.83 Y93.449 E0.79582
G1 X111.313 Y93.586 E0.87853
G1 X113.842 Y93.655 E0.96267
G1 X116.359 Y93.651 E1.04639
G1 X118.857 Y93.577 E1.12951
G1 X121.377 Y93.432 E1.21346
G1 X125.126 Y93.092 E1.33867
G1 X125.493 Y93.065 E1.35091
G1 X125.925 Y93.041 E1.3653
G1 X126.452 Y93.023 E1.38284
G1 X127.14 Y93.021 E1.40572
G1 X128.09 Y93.048 E1.43733
G1 X128.837 Y93.095 E1.46222
G1 X129.343 Y93.144 E1.47913
G1 X129.753 Y93.192 E1.49286
G1 X130.198 Y93.252 E1.5078
G1 X130.54 Y93.303 E1.5193
G1 X131.013 Y93.382 E1.53525
G1 X131.653 Y93.509 E1.55695
G1 X132.016 Y93.592 E1.56933
G1 X132.466 Y93.705 E1.58477
G1 X133.168 Y93.897 E1.60897
G1 X134.402 Y94.314 E1.6523
G1 X134.471 Y94.342 E1.65477
G1 X135.405 Y94.773 E1.68899
G1 X136.175 Y95.173 E1.71784
G1 X137.314 Y95.756 E1.7604
G1 X138.409 Y96.308 E1.80119
G1 X139.228 Y96.765 E1.83238
G1 X139.768 Y97.12 E1.85388
G1 X140.315 Y97.503 E1.87609
G1 X140.614 Y97.72 E1.88837
G1 X140.964 Y97.983 E1.90293
G1 X141.689 Y98.578 E1.93413
G1 X142.361 Y99.232 E1.96532
G1 X142.974 Y99.942 E1.99652
G1 X143.371 Y100.474 E2.01859
G1 X143.699 Y100.968 E2.03832
G1 X144.137 Y101.669 E2.06581
G1 X144.784 Y102.735 E2.10728
G1 X146.132 Y104.821 E2.18989
G1 X146.338 Y105.128 E2.20219
G1 X146.656 Y105.616 E2.22156
G1 X147.134 Y106.422 E2.25273
G1 X147.365 Y106.878 E2.26973
G1 X147.419 Y106.991 E2.27389
G1 X147.787 Y107.854 E2.3051
G1 X148.063 Y108.683 E2.33416
G1 X148.147 Y108.974 E2.34423
G1 X148.244 Y109.331 E2.35654
G1 X148.301 Y109.558 E2.36432
G1 X148.462 Y110.226 E2.38718
G1 X148.587 Y110.815 E2.4072
G1 X148.648 Y111.147 E2.41843
G1 X148.724 Y111.619 E2.43433
G1 X148.852 Y112.55 E2.46559
G1 X148.908 Y113.113 E2.4844
G1 X148.932 Y113.437 E2.49521
G1 X148.955 Y113.849 E2.50894
G1 X148.976 Y114.425 E2.52811
G1 X148.979 Y115.128 E2.55149
G1 X148.953 Y116.075 E2.583
G1 X148.905 Y116.846 E2.60869
G1 X148.855 Y117.356 E2.62573
G1 X148.808 Y117.753 E2.63903
G1 X148.748 Y118.198 E2.65397
G1 X148.695 Y118.548 E2.66574
G1 X148.616 Y119.019 E2.68162
G1 X148.494 Y119.638 E2.70261
G1 X148.411 Y120.003 E2.71506
G1 X148.304 Y120.433 E2.7298
G1 X148.123 Y121.103 E2.75288
G1 X147.84 Y121.997 E2.78407
G1 X147.6 Y122.602 E2.80572
G1 X147.539 Y122.743 E2.81083
G1 X147.13 Y123.587 E2.84202
G1 X146.587 Y124.49 E2.87706
G1 X145.778 Y125.698 E2.92542
G1 X145.665 Y125.862 E2.93204
G1 X143.983 Y128.474 E3.03537
G1 X143.586 Y129.113 E3.0604
G1 X143.057 Y129.888 E3.0916
G1 X142.464 Y130.615 E3.12281
G1 X141.812 Y131.288 E3.15397
G1 X140.873 Y132.083 E3.1949
G1 X140.375 Y132.459 E3.21565
G1 X140.081 Y132.673 E3.22774
G1 X139.709 Y132.935 E3.24288
G1 X138.92 Y133.442 E3.27407
G1 X138.454 Y133.699 E3.29177
G1 X138.018 Y133.924 E3.30809
G1 X135.749 Y135.049 E3.39232
G1 X135.373 Y135.243 E3.4064
G1 X134.564 Y135.62 E3.43608
G1 X134.492 Y135.65 E3.43868
G1 X133.293 Y136.07 E3.48093
G1 X132.779 Y136.215 E3.49869
G1 X132.447 Y136.3 E3.51009
G1 X131.772 Y136.463 E3.53319
G1 X131.185 Y136.588 E3.55315
G1 X130.903 Y136.64 E3.56269
G1 X130.564 Y136.697 E3.57412
G1 X130.292 Y136.738 E3.58327
G1 X129.557 Y136.838 E3.60794
G1 X128.868 Y136.909 E3.63098
G1 X128.495 Y136.936 E3.64342
G1 X128.076 Y136.959 E3.65737
G1 X127.548 Y136.977 E3.67495
G1 X126.871 Y136.979 E3.69746
G1 X125.925 Y136.953 E3.72894
G1 X125.151 Y136.904 E3.75473
G1 X123.818 Y136.773 E3.79928
G1 X121.17 Y136.551 E3.88767
G1 X118.687 Y136.414 E3.97038
G1 X116.158 Y136.345 E4.05452
G1 X113.641 Y136.349 E4.13824
G1 X111.143 Y136.423 E4.22136
G1 X108.623 Y136.568 E4.30531
G1 X104.874 Y136.908 E4.43052
G1 X104.507 Y136.935 E4.44276
G1 X104.075 Y136.959 E4.45715
G1 X103.548 Y136.977 E4.47468
G1 X102.86 Y136.979 E4.49757
G1 X101.91 Y136.952 E4.52918
G1 X101.163 Y136.905 E4.55407
G1 X100.657 Y136.856 E4.57098
G1 X100.247 Y136.808 E4.58471
G1 X99.802 Y136.748 E4.59964
G1 X99.46 Y136.697 E4.61115
G1 X98.987 Y136.618 E4.6271
G1 X98.347 Y136.491 E4.6488
G1 X97.984 Y136.408 E4.66118
G1 X97.532 Y136.295 E4.67668
G1 X96.827 Y136.102 E4.70099
G1 X95.933 Y135.816 E4.73221
G1 X94.985 Y135.415 E4.76644
G1 X94.847 Y135.349 E4.77153
G1 X93.992 Y134.893 E4.80376
G1 X93.123 Y134.378 E4.83736
G1 X92.626 Y134.074 E4.85674
G1 X91.63 Y133.513 E4.89476
G1 X91.344 Y133.335 E4.90596
G1 X90.353 Y132.764 E4.944
G1 X89.295 Y132.07 E4.98609
G1 X88.715 Y131.64 E5.0101
G1 X88.453 Y131.44 E5.02106
G1 X88.003 Y131.085 E5.04013
G1 X87.292 Y130.473 E5.07133
G1 X86.667 Y129.837 E5.10099
G1 X86.066 Y129.117 E5.13218
G1 X85.529 Y128.348 E5.16338
G1 X85.193 Y127.785 E5.18518
G1 X84.925 Y127.3 E5.20361
G1 X84.025 Y125.623 E5.26691
G1 X83.117 Y124.034 E5.32779
G1 X82.894 Y123.631 E5.3431
G1 X82.351 Y122.492 E5.38507
G1 X82.322 Y122.421 E5.38762
G1 X81.935 Y121.308 E5.42682
G1 X81.852 Y121.02 E5.43678
G1 X81.756 Y120.668 E5.44892
G1 X81.54 Y119.787 E5.47909
G1 X81.393 Y119.083 E5.50301
G1 X81.327 Y118.706 E5.51574
G1 X81.262 Y118.29 E5.52974
G1 X81.162 Y117.554 E5.55445
G1 X81.096 Y116.94 E5.57499
G1 X81.061 Y116.466 E5.5908
G1 X81.041 Y116.076 E5.60378
G1 X81.023 Y115.549 E5.62132
G1 X81.022 Y114.856 E5.64437
G1 X81.05 Y113.888 E5.67658
G1 X81.098 Y113.131 E5.70181
G1 X81.146 Y112.642 E5.71815
G1 X81.192 Y112.247 E5.73138
G1 X81.252 Y111.802 E5.74631
G1 X81.303 Y111.46 E5.75781
G1 X81.382 Y110.987 E5.77376
G1 X81.509 Y110.347 E5.79547
G1 X81.592 Y109.984 E5.80785
G1 X81.698 Y109.56 E5.82239
G1 X81.88 Y108.888 E5.84554
G1 X82.218 Y107.848 E5.88191
G1 X82.258 Y107.743 E5.88565
G1 X82.777 Y106.585 E5.92786
G1 X83.37 Y105.445 E5.9706
G1 X83.884 Y104.41 E6.00903
G1 X83.97 Y104.254 E6.01496
G1 X84.58 Y103.055 E6.0597
G1 X85.04 Y102.238 E6.09089
G1 X85.568 Y101.463 E6.12208
G1 X86.161 Y100.736 E6.15328
G1 X86.813 Y100.062 E6.18447
G0 F6000 X87.138 Y100.306
G1 F1200 X88.005 Y99.576 E6.22217
G1 X88.508 Y99.197 E6.24311
G1 X88.79 Y98.992 E6.25471
G1 X89.174 Y98.722 E6.27032
G1 X89.644 Y98.41 E6.28909
G1 X90.235 Y98.04 E6.31228
G1 X92.431 Y96.623 E6.3992
G1 X93.434 Y95.942 E6.43952
G1 X93.831 Y95.681 E6.45533
G1 X94.623 Y95.212 E6.48594
G1 X95.108 Y94.969 E6.50398
G1 X95.227 Y94.913 E6.50836
G1 X96.076 Y94.557 E6.53898
G1 X96.809 Y94.317 E6.56463
G1 X97.094 Y94.235 E6.57449
G1 X97.433 Y94.143 E6.58618
G1 X97.647 Y94.089 E6.59352
G1 X98.322 Y93.926 E6.61661
G1 X98.872 Y93.809 E6.63532
G1 X99.157 Y93.756 E6.64496
G1 X99.555 Y93.689 E6.65838
G1 X99.762 Y93.659 E6.66534
G1 X100.497 Y93.559 E6.69001
G1 X101.161 Y93.49 E6.71221
G1 X101.534 Y93.463 E6.72465
G1 X101.938 Y93.441 E6.73811
G1 X102.466 Y93.423 E6.75568
G1 X103.118 Y93.421 E6.77737
G1 X104.064 Y93.447 E6.80884
G1 X104.81 Y93.494 E6.8337
G1 X106.178 Y93.628 E6.87942
G1 X108.778 Y93.846 E6.9662
G1 X111.313 Y93.986 E7.05064
G1 X113.832 Y94.055 E7.13446
G1 X116.372 Y94.051 E7.21894
G1 X118.892 Y93.976 E7.30279
G1 X121.375 Y93.833 E7.38551
G1 X125.155 Y93.491 E7.51175
G1 X125.522 Y93.464 E7.52399
G1 X125.938 Y93.441 E7.53785
G1 X126.465 Y93.423 E7.55539
G1 X127.128 Y93.421 E7.57744
G1 X128.078 Y93.448 E7.60905
G1 X128.799 Y93.493 E7.63307
G1 X129.305 Y93.542 E7.64998
G1 X129.699 Y93.588 E7.66318
G1 X130.144 Y93.648 E7.67811
G1 X130.474 Y93.698 E7.68921
G1 X130.947 Y93.777 E7.70516
G1 X131.564 Y93.899 E7.72608
G1 X131.927 Y93.982 E7.73847
G1 X132.36 Y94.091 E7.75332
G1 X133.062 Y94.283 E7.77752
G1 X134.252 Y94.685 E7.8193
G1 X134.321 Y94.713 E7.82178
G1 X135.22 Y95.128 E7.85471
G1 X135.993 Y95.529 E7.88367
G1 X137.132 Y96.112 E7.92623
G1 X138.229 Y96.665 E7.96709
G1 X139.032 Y97.114 E7.99769
G1 X139.539 Y97.448 E8.01788
G1 X140.086 Y97.831 E8.04009
G1 X140.374 Y98.04 E8.05193
G1 X140.724 Y98.303 E8.06649
G1 X141.435 Y98.887 E8.09709
G1 X142.093 Y99.531 E8.12772
G1 X142.692 Y100.23 E8.15833
G1 X143.044 Y100.704 E8.17797
G1 X143.36 Y101.18 E8.19697
G1 X143.795 Y101.876 E8.22427
G1 X144.449 Y102.953 E8.26618
G1 X145.816 Y105.069 E8.34997
G1 X146.003 Y105.346 E8.36108
G1 X146.321 Y105.834 E8.38046
G1 X146.79 Y106.626 E8.41107
G1 X147.004 Y107.051 E8.4269
G1 X147.058 Y107.164 E8.43106
G1 X147.419 Y108.011 E8.46169
G1 X147.678 Y108.794 E8.48912
G1 X147.762 Y109.085 E8.49919
G1 X147.857 Y109.433 E8.51119
G1 X147.912 Y109.651 E8.51867
G1 X148.073 Y110.319 E8.54152
G1 X148.193 Y110.887 E8.56083
G1 X148.254 Y111.219 E8.57206
G1 X148.328 Y111.674 E8.58739
G1 X148.455 Y112.598 E8.61841
G1 X148.509 Y113.143 E8.63662
G1 X148.533 Y113.467 E8.64743
G1 X148.555 Y113.864 E8.66065
G1 X148.576 Y114.44 E8.67983
G1 X148.579 Y115.117 E8.70234
G1 X148.553 Y116.064 E8.73385
G1 X148.506 Y116.807 E8.75861
G1 X148.456 Y117.317 E8.77566
G1 X148.412 Y117.699 E8.78845
G1 X148.352 Y118.144 E8.80338
G1 X148.301 Y118.481 E8.81472
G1 X148.222 Y118.952 E8.8306
G1 X148.104 Y119.549 E8.85084
G1 X148.021 Y119.914 E8.86329
G1 X147.918 Y120.328 E8.87748
G1 X147.737 Y120.998 E8.90057
G1 X147.459 Y121.876 E8.9312
G1 X147.233 Y122.443 E8.9515
G1 X147.172 Y122.584 E8.95661
G1 X146.77 Y123.412 E8.98722
G1 X146.254 Y124.268 E9.02046
G1 X145.448 Y125.471 E9.06863
G1 X145.326 Y125.648 E9.07578
G1 X143.668 Y128.224 E9.17767
G1 X143.246 Y128.902 E9.20423
G1 X142.727 Y129.662 E9.23484
G1 X142.143 Y130.374 E9.26547
G1 X141.5 Y131.033 E9.29609
G1 X140.632 Y131.764 E9.33383
G1 X140.134 Y132.14 E9.35459
G1 X139.851 Y132.346 E9.36623
G1 X139.479 Y132.608 E9.38136
G1 X138.704 Y133.105 E9.41199
G1 X138.269 Y133.345 E9.42851
G1 X138.025 Y133.472 E9.43766
G1 X135.644 Y134.654 E9.52607
G1 X135.19 Y134.888 E9.54306
G1 X134.41 Y135.251 E9.57168
G1 X134.338 Y135.281 E9.57427
G1 X133.182 Y135.685 E9.615
G1 X132.677 Y135.828 E9.63246
G1 X132.353 Y135.911 E9.64358
G1 X131.678 Y136.074 E9.66668
G1 X131.112 Y136.194 E9.68592
G1 X130.599 Y136.286 E9.70325
G1 X130.238 Y136.341 E9.7154
G1 X129.503 Y136.441 E9.74007
G1 X128.839 Y136.51 E9.76227
G1 X128.466 Y136.537 E9.77471
G1 X128.062 Y136.559 E9.78817
G1 X127.534 Y136.577 E9.80574
G1 X126.882 Y136.579 E9.82743
G1 X125.936 Y136.553 E9.8589
G1 X125.19 Y136.506 E9.88376
G1 X123.822 Y136.372 E9.92948
G1 X121.222 Y136.154 E10.01626
G1 X118.687 Y136.014 E10.1007
G1 X116.168 Y135.945 E10.18452
G1 X113.628 Y135.949 E10.269
G1 X111.108 Y136.024 E10.35285
G1 X108.625 Y136.167 E10.43557
G1 X104.845 Y136.509 E10.56181
G1 X104.478 Y136.536 E10.57405
G1 X104.062 Y136.559 E10.58791
G1 X103.535 Y136.577 E10.60545
G1 X102.872 Y136.579 E10.6275
G1 X101.922 Y136.552 E10.65911
G1 X101.201 Y136.507 E10.68313
G1 X100.695 Y136.458 E10.70004
G1 X100.301 Y136.412 E10.71324
G1 X99.856 Y136.352 E10.72817
G1 X99.526 Y136.302 E10.73927
G1 X99.053 Y136.223 E10.75522
G1 X98.436 Y136.101 E10.77614
G1 X98.073 Y136.018 E10.78853
G1 X97.637 Y135.909 E10.80347
G1 X96.932 Y135.716 E10.82778
G1 X96.056 Y135.434 E10.85839
G1 X95.158 Y135.055 E10.89081
G1 X95.02 Y134.989 E10.8959
G1 X94.196 Y134.549 E10.92697
G1 X93.331 Y134.036 E10.96042
G1 X92.838 Y133.735 E10.97963
G1 X91.827 Y133.165 E11.01823
G1 X91.553 Y132.994 E11.02897
G1 X90.553 Y132.418 E11.06736
G1 X89.533 Y131.749 E11.10793
G1 X88.953 Y131.319 E11.13194
G1 X88.701 Y131.126 E11.1425
G1 X88.251 Y130.771 E11.16156
G1 X87.553 Y130.17 E11.1922
G1 X86.963 Y129.568 E11.22023
G1 X86.374 Y128.861 E11.25084
G1 X85.848 Y128.105 E11.28147
G1 X85.543 Y127.59 E11.30138
G1 X85.277 Y127.111 E11.3196
G1 X84.366 Y125.413 E11.38369
G1 X83.377 Y123.68 E11.45006
G1 X83.244 Y123.438 E11.45924
G1 X82.721 Y122.341 E11.49966
G1 X82.692 Y122.27 E11.50222
G1 X82.32 Y121.197 E11.53999
G1 X82.172 Y120.676 E11.558
G1 X82.094 Y120.37 E11.5685
G1 X81.929 Y119.692 E11.59171
G1 X81.787 Y119.014 E11.61475
G1 X81.721 Y118.637 E11.62748
G1 X81.659 Y118.236 E11.64098
G1 X81.559 Y117.5 E11.66568
G1 X81.495 Y116.908 E11.68549
G1 X81.46 Y116.442 E11.70103
G1 X81.441 Y116.063 E11.71365
G1 X81.423 Y115.536 E11.73119
G1 X81.421 Y114.868 E11.75341
G1 X81.449 Y113.9 E11.78562
G1 X81.496 Y113.17 E11.80995
G1 X81.544 Y112.681 E11.82629
G1 X81.588 Y112.301 E11.83901
G1 X81.648 Y111.856 E11.85395
G1 X81.698 Y111.526 E11.86505
G1 X81.777 Y111.053 E11.881
G1 X81.899 Y110.436 E11.90192
G1 X81.982 Y110.073 E11.9143
G1 X82.084 Y109.665 E11.92829
G1 X82.266 Y108.993 E11.95145
G1 X82.591 Y107.99 E11.98651
G1 X82.631 Y107.885 E11.99025
G1 X83.132 Y106.769 E12.03094
G1 X83.725 Y105.628 E12.07371
G1 X84.242 Y104.588 E12.11234
G1 X84.322 Y104.444 E12.11782
G1 X84.936 Y103.236 E12.16289
G1 X85.389 Y102.434 E12.19352
G1 X85.909 Y101.675 E12.22412
G1 X86.494 Y100.964 E12.25475
G1 X87.138 Y100.306 E12.28537
G0 F6000 X87.462 Y100.551
G1 F1200 X88.246 Y99.896 E12.31935
G1 X88.749 Y99.517 E12.34029
G1 X89.02 Y99.319 E12.35146
G1 X89.404 Y99.049 E12.36707
G1 X89.857 Y98.749 E12.38514
G1 X90.42 Y98.396 E12.40724
G1 X92.661 Y96.951 E12.49593
G1 X93.819 Y96.166 E12.54246
G1 X94.049 Y96.016 E12.55159
G1 X94.827 Y95.557 E12.58164
G1 X95.278 Y95.331 E12.59842
G1 X95.397 Y95.275 E12.60279
G1 X96.23 Y94.927 E12.63282
G1 X96.92 Y94.702 E12.65696
G1 X97.425 Y94.559 E12.67441
G1 X97.741 Y94.478 E12.68526
G1 X98.416 Y94.315 E12.70836
G1 X98.945 Y94.202 E12.72635
G1 X99.23 Y94.149 E12.73599
G1 X99.616 Y94.084 E12.74901
G1 X100.551 Y93.955 E12.7804
G1 X101.19 Y93.889 E12.80177
G1 X101.563 Y93.862 E12.81421
G1 X101.951 Y93.841 E12.82713
G1 X102.479 Y93.823 E12.8447
G1 X103.107 Y93.821 E12.86559
G1 X104.053 Y93.847 E12.89707
G1 X104.771 Y93.892 E12.921
G1 X106.179 Y94.03 E12.96805
G1 X108.755 Y94.246 E13.05403
G1 X111.281 Y94.386 E13.13817
G1 X113.822 Y94.455 E13.22272
G1 X116.349 Y94.451 E13.30677
G1 X118.927 Y94.375 E13.39255
G1 X121.434 Y94.23 E13.47607
G1 X125.185 Y93.889 E13.60134
G1 X125.552 Y93.862 E13.61358
G1 X125.952 Y93.841 E13.62691
G1 X126.479 Y93.823 E13.64444
G1 X127.117 Y93.821 E13.66566
G1 X128.067 Y93.848 E13.69727
G1 X128.76 Y93.891 E13.72037
G1 X129.266 Y93.94 E13.73728
G1 X129.646 Y93.984 E13.75
G1 X130.091 Y94.044 E13.76493
G1 X130.408 Y94.092 E13.7756
G1 X130.881 Y94.171 E13.79155
G1 X131.475 Y94.289 E13.81169
G1 X131.838 Y94.372 E13.82408
G1 X132.255 Y94.476 E13.83837
G1 X132.957 Y94.668 E13.86258
G1 X134.101 Y95.056 E13.90275
G1 X134.17 Y95.084 E13.90523
G1 X135.036 Y95.483 E13.93694
G1 X135.81 Y95.885 E13.96595
G1 X136.892 Y96.439 E14.00638
G1 X138.049 Y97.022 E14.04948
G1 X138.837 Y97.464 E14.07953
G1 X139.309 Y97.776 E14.09834
G1 X139.856 Y98.159 E14.12055
G1 X140.133 Y98.36 E14.13194
G1 X140.483 Y98.623 E14.1465
G1 X141.181 Y99.197 E14.17656
G1 X141.824 Y99.83 E14.20657
G1 X142.41 Y100.518 E14.23662
G1 X142.717 Y100.934 E14.25382
G1 X143.021 Y101.393 E14.27213
G1 X143.453 Y102.084 E14.29924
