;FLAVOR:Marlin
;TIME:2486
;Filament used: 1.21086m
;Layer height: 0.2
;MINX:90.968
;MINY:98.869
;MINZ:0.2
;MAXX:141.119
;MAXY:131.085
;MAXZ:30
;Generated with Cura_SteamEngine 4.12.1
M140 S60
M105
M190 S60
M104 S200
M105
M109 S200
M82 ;absolute extrusion mode
; Ender 3 Custom Start G-code
G92 E0 ; Reset Extruder
G28 ; Home all axes
G1 Z2.0 F3000 ; Move Z Axis up little to prevent scratching of Heat Bed
G1 X0.1 Y20 Z0.3 F5000.0 ; Move to start position
G1 X0.1 Y200.0 Z0.3 F1500.0 E15 ; Draw the first line
G1 X0.4 Y200.0 Z0.3 F5000.0 ; Move to side a little
G1 X0.4 Y20 Z0.3 F1500.0 E30 ; Draw the second line
G92 E0 ; Reset Extruder
G1 Z2.0 F3000 ; Move Z Axis up little to prevent scratching of Heat Bed
G1 X5 Y20 Z0.3 F5000.0 ; Move over to prevent blob squish
G92 E0
G92 E0
G1 F1500 E-6.5
;LAYER_COUNT:150
;LAYER:0
M107
G0 F6000 X95.212 Y104.948 Z0.2
;TYPE:SKIRT
G1 F1500 E0
G1 F1200 X95.953 Y104.276 E0.03327
G1 X96.224 Y104.052 E0.04497
G1 X97.191 Y103.338 E0.08494
G1 X97.436 Y103.177 E0.0947
G1 X98.069 Y102.791 E0.11936
G1 X98.131 Y102.756 E0.12172
G1 X98.848 Y102.385 E0.14857
G1 X99.058 Y102.286 E0.1563
G1 X99.36 Y102.15 E0.16731
G1 X99.576 Y102.056 E0.17515
G1 X100.451 Y101.718 E0.20635
G1 X100.988 Y101.552 E0.22504
G1 X101.358 Y101.448 E0.23782
G1 X102.381 Y101.213 E0.27273
G1 X102.658 Y101.163 E0.2821
G1 X103.812 Y101.017 E0.32078
G1 X104.196 Y100.989 E0.33359
G1 X104.792 Y100.962 E0.35343
G1 X107.489 Y100.883 E0.44317
G1 X110.04 Y100.736 E0.52816
G1 X112.513 Y100.523 E0.61072
G1 X115.019 Y100.234 E0.69462
G1 X117.481 Y99.88 E0.77735
G1 X121.304 Y99.194 E0.90653
G1 X121.418 Y99.171 E0.9104
G1 X121.998 Y99.073 E0.92997
G1 X122.537 Y98.996 E0.94808
G1 X123.044 Y98.935 E0.96506
G1 X123.211 Y98.919 E0.97064
G1 X124.281 Y98.869 E1.00627
G1 X124.799 Y98.87 E1.0235
G1 X125.736 Y98.912 E1.05469
G1 X126.631 Y99.027 E1.0847
G1 X127.532 Y99.181 E1.11511
G1 X128.449 Y99.379 E1.14631
G1 X129.346 Y99.653 E1.1775
G1 X129.849 Y99.845 E1.19541
G1 X130.015 Y99.913 E1.20138
G1 X130.293 Y100.032 E1.21144
G1 X130.535 Y100.139 E1.22024
G1 X131.376 Y100.554 E1.25143
G1 X132.178 Y101.04 E1.28262
G1 X132.937 Y101.592 E1.31383
G1 X133.645 Y102.207 E1.34502
G1 X134.148 Y102.714 E1.36878
G1 X134.343 Y102.924 E1.37831
G1 X135.051 Y103.768 E1.41495
G1 X136.405 Y105.557 E1.48957
G1 X137.741 Y107.229 E1.56076
G1 X138.395 Y108.03 E1.59515
G1 X138.951 Y108.773 E1.62602
G1 X139.088 Y108.973 E1.63408
G1 X139.333 Y109.345 E1.64889
G1 X139.805 Y110.156 E1.6801
G1 X140.206 Y111.004 E1.7113
G1 X140.533 Y111.883 E1.7425
G1 X140.784 Y112.786 E1.77367
G1 X140.965 Y113.761 E1.80665
G1 X141.02 Y114.156 E1.81992
G1 X141.11 Y115.09 E1.85113
G1 X141.119 Y116.027 E1.88229
G1 X141.077 Y116.696 E1.90459
G1 X141.013 Y117.381 E1.92747
G1 X140.95 Y117.914 E1.94532
G1 X140.934 Y118.026 E1.94908
G1 X140.665 Y119.337 E1.9936
G1 X140.53 Y119.837 E2.01082
G1 X140.436 Y120.165 E2.02217
G1 X140.368 Y120.389 E2.02996
G1 X140.057 Y121.274 E2.06115
G1 X139.673 Y122.13 E2.09236
G1 X139.216 Y122.949 E2.12355
G1 X138.692 Y123.727 E2.15475
G1 X137.928 Y124.651 E2.19463
G1 X137.408 Y125.215 E2.22014
G1 X136.064 Y126.717 E2.28718
G1 X135.777 Y127.03 E2.3013
G1 X135.114 Y127.694 E2.33251
G1 X134.397 Y128.299 E2.36372
G1 X133.631 Y128.84 E2.39491
G1 X132.822 Y129.314 E2.42609
G1 X132.239 Y129.602 E2.44772
G1 X131.996 Y129.713 E2.45661
G1 X131.128 Y130.066 E2.48777
G1 X130.232 Y130.343 E2.51896
G1 X128.977 Y130.597 E2.56155
G1 X128.431 Y130.675 E2.5799
G1 X127.317 Y130.85 E2.6174
G1 X126.406 Y130.98 E2.64801
G1 X125.473 Y131.072 E2.67919
G1 X124.535 Y131.085 E2.71039
G1 X123.933 Y131.052 E2.73045
G1 X122.871 Y130.963 E2.76589
G1 X122.324 Y130.909 E2.78417
G1 X119.825 Y130.732 E2.8675
G1 X117.303 Y130.625 E2.95146
G1 X114.78 Y130.589 E3.03538
G1 X112.257 Y130.625 E3.1193
G1 X109.739 Y130.732 E3.20313
G1 X107.923 Y130.86 E3.26368
G1 X107.368 Y130.891 E3.28217
G1 X106.431 Y130.903 E3.31333
G1 X105.495 Y130.836 E3.34455
G1 X104.569 Y130.689 E3.37573
G1 X103.659 Y130.463 E3.40692
G1 X102.617 Y130.1 E3.44362
G1 X102.452 Y130.033 E3.44954
G1 X102.13 Y129.896 E3.46118
G1 X101.873 Y129.782 E3.47053
G1 X101.032 Y129.366 E3.50174
G1 X100.231 Y128.879 E3.53291
G1 X99.831 Y128.599 E3.54915
G1 X97.653 Y127.003 E3.63896
G1 X96.916 Y126.478 E3.66906
G1 X96.544 Y126.203 E3.68445
G1 X96.113 Y125.863 E3.7027
G1 X95.894 Y125.681 E3.71217
G1 X95.199 Y125.051 E3.74337
G1 X94.815 Y124.653 E3.76177
G1 X94.541 Y124.354 E3.77526
G1 X94.221 Y123.989 E3.7914
G1 X93.642 Y123.251 E3.8226
G1 X93.329 Y122.79 E3.84113
G1 X93.118 Y122.462 E3.85411
G1 X92.791 Y121.92 E3.87516
G1 X92.695 Y121.75 E3.88165
G1 X92.136 Y120.612 E3.92382
G1 X92.045 Y120.396 E3.93162
G1 X91.919 Y120.083 E3.94284
G1 X91.833 Y119.86 E3.95079
G1 X91.533 Y118.971 E3.982
G1 X91.411 Y118.515 E3.9977
G1 X91.366 Y118.331 E4.004
G1 X91.275 Y117.927 E4.01777
G1 X91.234 Y117.727 E4.02456
G1 X91.105 Y116.962 E4.05036
G1 X91.067 Y116.675 E4.05999
G1 X90.977 Y115.559 E4.09723
G1 X90.968 Y115.257 E4.10728
G1 X90.98 Y114.319 E4.13848
G1 X91.027 Y113.745 E4.15764
G1 X91.069 Y113.357 E4.17062
G1 X91.229 Y112.334 E4.20506
G1 X91.306 Y111.958 E4.21782
G1 X91.595 Y110.843 E4.25613
G1 X91.665 Y110.622 E4.26384
G1 X91.987 Y109.741 E4.29504
G1 X92.229 Y109.198 E4.31481
G1 X92.471 Y108.692 E4.33347
G1 X92.911 Y107.864 E4.36465
G1 X93.406 Y107.097 E4.39502
G1 X93.648 Y106.754 E4.40898
G1 X93.935 Y106.365 E4.42506
G1 X94.534 Y105.643 E4.45626
G1 X94.941 Y105.217 E4.47586
G1 X95.212 Y104.948 E4.48856
G0 F6000 X95.493 Y105.232
G1 F1200 X96.208 Y104.585 E4.52063
G1 X96.479 Y104.361 E4.53232
G1 X97.411 Y103.673 E4.57085
G1 X97.656 Y103.512 E4.5806
G1 X98.266 Y103.139 E4.60438
G1 X98.328 Y103.104 E4.60675
G1 X99.019 Y102.747 E4.63262
G1 X99.229 Y102.648 E4.64034
G1 X99.519 Y102.516 E4.65094
G1 X99.735 Y102.422 E4.65877
G1 X100.595 Y102.092 E4.68941
G1 X101.097 Y101.937 E4.70689
G1 X101.467 Y101.833 E4.71967
G1 X102.452 Y101.607 E4.75328
G1 X102.729 Y101.557 E4.76264
G1 X103.841 Y101.416 E4.79992
G1 X104.225 Y101.388 E4.81273
G1 X104.8 Y101.362 E4.83187
G1 X107.524 Y101.282 E4.92251
G1 X110.029 Y101.138 E5.00597
G1 X112.557 Y100.92 E5.09036
G1 X115.086 Y100.629 E5.17503
G1 X117.553 Y100.274 E5.25793
G1 X121.385 Y99.586 E5.38742
G1 X121.495 Y99.564 E5.39115
G1 X122.055 Y99.469 E5.41004
G1 X122.594 Y99.392 E5.42815
G1 X123.082 Y99.333 E5.4445
G1 X123.249 Y99.317 E5.45008
G1 X124.28 Y99.269 E5.48441
G1 X124.798 Y99.27 E5.50164
G1 X125.718 Y99.312 E5.53227
G1 X126.564 Y99.422 E5.56064
G1 X127.465 Y99.576 E5.59105
G1 X128.365 Y99.77 E5.62167
G1 X129.244 Y100.042 E5.65227
G1 X129.697 Y100.215 E5.6684
G1 X129.863 Y100.283 E5.67437
G1 X130.131 Y100.397 E5.68405
G1 X130.373 Y100.504 E5.69285
G1 X131.199 Y100.913 E5.72351
G1 X131.985 Y101.391 E5.75411
G1 X132.727 Y101.936 E5.78473
G1 X133.419 Y102.544 E5.81537
G1 X133.855 Y102.986 E5.83602
G1 X134.05 Y103.196 E5.84555
G1 X134.732 Y104.01 E5.88087
G1 X136.094 Y105.808 E5.95589
G1 X137.404 Y107.45 E6.02575
G1 X138.085 Y108.283 E6.06154
G1 X138.621 Y108.999 E6.09129
G1 X138.758 Y109.199 E6.09935
G1 X138.996 Y109.561 E6.11376
G1 X139.459 Y110.357 E6.14439
G1 X139.85 Y111.191 E6.17502
G1 X140.168 Y112.055 E6.20565
G1 X140.41 Y112.943 E6.23626
G1 X140.569 Y113.816 E6.26577
G1 X140.624 Y114.211 E6.27904
G1 X140.711 Y115.128 E6.30967
G1 X140.718 Y116.048 E6.34027
G1 X140.679 Y116.659 E6.36064
G1 X140.615 Y117.344 E6.38352
G1 X140.554 Y117.857 E6.4007
G1 X140.538 Y117.969 E6.40446
G1 X140.279 Y119.233 E6.44738
G1 X140.144 Y119.733 E6.4646
G1 X140.053 Y120.049 E6.47554
G1 X139.985 Y120.273 E6.48333
G1 X139.679 Y121.142 E6.51397
G1 X139.3 Y121.98 E6.54456
G1 X138.849 Y122.783 E6.57519
G1 X138.33 Y123.543 E6.6058
G1 X137.634 Y124.38 E6.64201
G1 X137.13 Y124.927 E6.66675
G1 X135.769 Y126.447 E6.73461
G1 X135.482 Y126.76 E6.74873
G1 X134.831 Y127.411 E6.77935
G1 X134.126 Y128.003 E6.80997
G1 X133.372 Y128.531 E6.84059
G1 X132.575 Y128.992 E6.87121
G1 X132.073 Y129.238 E6.8898
G1 X131.83 Y129.349 E6.89869
G1 X130.977 Y129.695 E6.9293
G1 X130.097 Y129.965 E6.95992
G1 X128.92 Y130.201 E6.99985
G1 X128.377 Y130.278 E7.01809
G1 X127.26 Y130.454 E7.0557
G1 X126.349 Y130.584 E7.0863
G1 X125.433 Y130.674 E7.11692
G1 X124.513 Y130.685 E7.14752
G1 X123.967 Y130.653 E7.16571
G1 X122.745 Y130.549 E7.2065
G1 X122.355 Y130.51 E7.21954
G1 X119.834 Y130.332 E7.30359
G1 X117.326 Y130.225 E7.38709
G1 X114.78 Y130.189 E7.47178
G1 X112.235 Y130.225 E7.55643
G1 X109.729 Y130.331 E7.63986
G1 X107.901 Y130.461 E7.70081
G1 X107.346 Y130.492 E7.7193
G1 X106.426 Y130.503 E7.7499
G1 X105.507 Y130.434 E7.78055
G1 X104.599 Y130.286 E7.81115
G1 X103.706 Y130.06 E7.84179
G1 X102.767 Y129.729 E7.8749
G1 X102.602 Y129.662 E7.88082
G1 X102.292 Y129.531 E7.89202
G1 X102.035 Y129.417 E7.90137
G1 X101.21 Y129.007 E7.93201
G1 X100.067 Y128.277 E7.97712
G1 X97.834 Y126.64 E8.06921
G1 X97.148 Y126.152 E8.09721
G1 X96.784 Y125.883 E8.11226
G1 X96.369 Y125.555 E8.12986
G1 X96.15 Y125.373 E8.13933
G1 X95.468 Y124.755 E8.16994
G1 X95.11 Y124.382 E8.18713
G1 X94.836 Y124.083 E8.20062
G1 X94.596 Y123.812 E8.21266
G1 X94.525 Y123.729 E8.2163
G1 X93.958 Y123.004 E8.24691
G1 X93.665 Y122.574 E8.26421
G1 X93.454 Y122.246 E8.27719
G1 X93.139 Y121.723 E8.29749
G1 X93.043 Y121.553 E8.30399
G1 X92.505 Y120.456 E8.34462
G1 X92.414 Y120.24 E8.35242
G1 X92.292 Y119.939 E8.36322
G1 X92.206 Y119.716 E8.37117
G1 X91.799 Y118.42 E8.41635
G1 X91.754 Y118.236 E8.42265
G1 X91.667 Y117.847 E8.43591
G1 X91.626 Y117.647 E8.4427
G1 X91.502 Y116.909 E8.46759
G1 X91.464 Y116.622 E8.47722
G1 X91.377 Y115.547 E8.51309
G1 X91.368 Y115.245 E8.52314
G1 X91.38 Y114.324 E8.55378
G1 X91.425 Y113.788 E8.57167
G1 X91.467 Y113.4 E8.58465
G1 X91.621 Y112.414 E8.61784
G1 X91.698 Y112.038 E8.6306
G1 X91.977 Y110.964 E8.66751
G1 X92.047 Y110.743 E8.67522
G1 X92.363 Y109.878 E8.70585
G1 X92.589 Y109.371 E8.72431
G1 X92.831 Y108.865 E8.74297
G1 X93.264 Y108.052 E8.7736
G1 X93.733 Y107.327 E8.80232
G1 X93.975 Y106.984 E8.81629
G1 X94.253 Y106.607 E8.83187
G1 X94.842 Y105.899 E8.8625
G1 X95.222 Y105.501 E8.8808
G1 X95.493 Y105.232 E8.8935
G0 F6000 X95.775 Y105.516
G1 F1200 X96.463 Y104.893 E8.92437
G1 X96.734 Y104.669 E8.93606
G1 X97.63 Y104.007 E8.97312
G1 X97.875 Y103.846 E8.98287
G1 X98.463 Y103.488 E9.00576
G1 X98.525 Y103.453 E9.00813
G1 X99.19 Y103.109 E9.03303
G1 X99.4 Y103.01 E9.04076
G1 X99.679 Y102.883 E9.05095
G1 X99.895 Y102.789 E9.05879
G1 X100.738 Y102.466 E9.08881
G1 X101.205 Y102.323 E9.10506
G1 X101.575 Y102.219 E9.11784
G1 X102.523 Y102 E9.1502
G1 X102.8 Y101.95 E9.15956
G1 X103.87 Y101.815 E9.19543
G1 X104.254 Y101.787 E9.20824
G1 X104.855 Y101.761 E9.22825
G1 X107.559 Y101.681 E9.31822
G1 X110.086 Y101.535 E9.40241
G1 X112.604 Y101.318 E9.48647
G1 X115.117 Y101.029 E9.5706
G1 X117.619 Y100.669 E9.65468
G1 X121.432 Y99.984 E9.78353
G1 X121.573 Y99.956 E9.78831
G1 X122.112 Y99.865 E9.80649
G1 X122.651 Y99.788 E9.8246
G1 X123.12 Y99.731 E9.84031
G1 X123.287 Y99.715 E9.84589
G1 X124.28 Y99.669 E9.87896
G1 X124.798 Y99.67 E9.89619
G1 X125.7 Y99.712 E9.92622
G1 X126.496 Y99.816 E9.95292
G1 X127.397 Y99.97 E9.98332
G1 X128.28 Y100.161 E10.01337
G1 X129.545 Y100.585 E10.05774
G1 X129.97 Y100.763 E10.07307
G1 X130.212 Y100.87 E10.08187
G1 X131.021 Y101.272 E10.11192
G1 X131.791 Y101.743 E10.14194
G1 X132.517 Y102.281 E10.17199
G1 X133.192 Y102.88 E10.20201
G1 X133.561 Y103.258 E10.21958
G1 X133.756 Y103.468 E10.22911
G1 X134.413 Y104.251 E10.2631
G1 X135.782 Y106.058 E10.33851
G1 X137.103 Y107.713 E10.40894
G1 X137.775 Y108.536 E10.44427
G1 X138.291 Y109.225 E10.47291
G1 X138.428 Y109.425 E10.48097
G1 X138.659 Y109.777 E10.49497
G1 X139.112 Y110.558 E10.525
G1 X139.494 Y111.377 E10.55506
G1 X139.803 Y112.225 E10.58508
G1 X140.034 Y113.098 E10.61511
G1 X140.173 Y113.871 E10.64124
G1 X140.228 Y114.266 E10.6545
G1 X140.312 Y115.165 E10.68453
G1 X140.317 Y116.069 E10.7146
G1 X140.281 Y116.622 E10.73303
G1 X140.217 Y117.307 E10.75591
G1 X140.158 Y117.8 E10.77243
G1 X140.142 Y117.912 E10.77619
G1 X139.892 Y119.129 E10.81751
G1 X139.757 Y119.629 E10.83474
G1 X139.67 Y119.933 E10.84526
G1 X139.602 Y120.157 E10.85304
G1 X139.302 Y121.009 E10.88308
G1 X138.927 Y121.83 E10.9131
G1 X138.482 Y122.616 E10.94315
G1 X137.968 Y123.359 E10.9732
G1 X137.34 Y124.109 E11.00573
G1 X136.822 Y124.671 E11.03115
G1 X135.474 Y126.176 E11.09835
G1 X135.187 Y126.489 E11.11248
G1 X134.548 Y127.127 E11.14251
G1 X133.855 Y127.706 E11.17254
G1 X133.113 Y128.222 E11.2026
G1 X132.329 Y128.669 E11.23262
G1 X131.907 Y128.874 E11.24822
G1 X131.664 Y128.985 E11.25711
G1 X130.827 Y129.323 E11.28713
G1 X129.963 Y129.586 E11.31717
G1 X128.864 Y129.805 E11.35444
G1 X128.324 Y129.882 E11.37259
G1 X127.204 Y130.058 E11.41029
G1 X126.293 Y130.188 E11.4409
G1 X125.394 Y130.276 E11.47094
G1 X124.491 Y130.284 E11.50098
G1 X124 Y130.254 E11.51734
G1 X122.784 Y130.151 E11.55793
G1 X122.384 Y130.111 E11.5713
G1 X119.881 Y129.934 E11.65476
G1 X117.313 Y129.825 E11.74025
G1 X114.78 Y129.789 E11.8245
G1 X112.248 Y129.825 E11.90873
G1 X109.685 Y129.934 E11.99405
G1 X107.879 Y130.061 E12.05427
G1 X107.324 Y130.092 E12.07275
G1 X106.421 Y130.103 E12.10279
G1 X105.52 Y130.033 E12.13285
G1 X104.63 Y129.884 E12.16286
G1 X103.756 Y129.657 E12.1929
G1 X102.917 Y129.359 E12.22251
G1 X102.752 Y129.292 E12.22843
G1 X102.454 Y129.165 E12.23921
G1 X102.197 Y129.051 E12.24856
G1 X101.389 Y128.648 E12.27859
G1 X100.303 Y127.954 E12.32145
G1 X98.063 Y126.312 E12.41383
G1 X97.38 Y125.826 E12.44171
G1 X97.024 Y125.563 E12.45643
G1 X96.625 Y125.248 E12.47334
G1 X96.406 Y125.066 E12.48281
G1 X95.737 Y124.458 E12.51288
G1 X95.405 Y124.112 E12.52883
G1 X95.131 Y123.813 E12.54232
G1 X94.829 Y123.469 E12.55754
G1 X94.273 Y122.758 E12.58756
G1 X94.002 Y122.357 E12.60366
G1 X93.791 Y122.029 E12.61663
G1 X93.487 Y121.527 E12.63615
G1 X93.391 Y121.357 E12.64264
G1 X92.873 Y120.301 E12.68176
G1 X92.782 Y120.085 E12.68956
G1 X92.665 Y119.795 E12.69996
G1 X92.579 Y119.572 E12.70791
G1 X92.188 Y118.325 E12.75138
G1 X92.143 Y118.141 E12.75768
G1 X92.059 Y117.766 E12.77046
G1 X92.018 Y117.566 E12.77725
G1 X91.898 Y116.857 E12.80117
G1 X91.86 Y116.57 E12.81079
G1 X91.777 Y115.535 E12.84533
G1 X91.768 Y115.233 E12.85538
G1 X91.781 Y114.33 E12.88541
G1 X91.822 Y113.831 E12.90207
G1 X91.864 Y113.443 E12.91505
G1 X92.012 Y112.495 E12.94696
G1 X92.089 Y112.119 E12.95973
G1 X92.358 Y111.085 E12.99526
G1 X92.428 Y110.864 E13.00297
G1 X92.739 Y110.016 E13.03301
G1 X92.95 Y109.543 E13.05024
G1 X93.192 Y109.037 E13.0689
G1 X93.618 Y108.24 E13.09895
G1 X94.06 Y107.558 E13.12598
G1 X94.302 Y107.215 E13.13995
G1 X94.517 Y106.92 E13.15209
G1 X94.571 Y106.849 E13.15505
G1 X95.149 Y106.155 E13.18509
G1 X95.504 Y105.785 E13.20215
G1 X95.775 Y105.516 E13.21485
G1 F1500 E6.71485
G0 F6000 X109.826 Y112.56
G0 X110.685 Y112.457
;TYPE:SUPPORT-INTERFACE
G1 F1500 E13.21485
G1 F1200 X110.703 Y112.448 E13.21552
G1 X110.69 Y112.47 E13.21637
G1 X110.687 Y112.476 E13.21659
G1 X110.685 Y112.457 E13.21723
G1 F1500 E6.71723
G0 F6000 X109.904 Y112.974
G0 X108.663 Y117.017
G0 X109.221 Y117.76
G1 F1500 E13.21723
G1 F1200 X109.225 Y117.8 E13.21856
G1 X109.201 Y117.811 E13.21944
G1 X109.192 Y117.807 E13.21977
G1 X109.221 Y117.76 E13.2216
G1 F1500 E6.7216
G0 F6000 X107.816 Y119.19
G1 F1500 E13.2216
G1 F1200 X107.863 Y119.159 E13.22348
G1 X107.866 Y119.19 E13.22451
G1 X107.842 Y119.201 E13.22539
G1 X107.816 Y119.19 E13.22633
G0 F6000 X107.327 Y119.476
G1 F1200 X107.363 Y119.456 E13.2277
G1 X107.365 Y119.47 E13.22817
G1 X107.34 Y119.481 E13.22908
G1 X107.327 Y119.476 E13.22954
G1 F1500 E6.72954
G0 F6000 X108.283 Y119.942
G0 X116.003 Y118.523
G0 X119.201 Y117.29
G0 X120.027 Y116.859
G1 F1500 E13.22954
G1 F1200 X120.143 Y116.645 E13.23764
G1 X120.142 Y116.644 E13.23769
G1 X120.16 Y116.61 E13.23896
G1 X120.363 Y117.112 E13.25697
G1 X120.379 Y117.15 E13.25835
G1 X120.383 Y117.159 E13.25867
G1 X120.393 Y117.181 E13.25948
G1 X120.217 Y117.225 E13.26551
G1 X120.049 Y117.127 E13.27198
G1 X120.027 Y116.859 E13.28092
G1 F1500 E6.78092
G0 F6000 X120.95 Y116.235
G0 X121.317 Y112.914
G0 X120.588 Y112.426
G1 F1500 E13.28092
