;FLAVOR:Marlin
;TIME:4448
;Filament used: 2.5974m
;Layer height: 0.2
;MINX:73.327
;MINY:76.514
;MINZ:0.2
;MAXX:153.942
;MAXY:146.188
;MAXZ:30
;Generated with Cura_SteamEngine 4.12.1
M140 S60
M105
M190 S60
M104 S200
M105
M109 S200
M82 ;absolute extrusion mode
; Ender 3 Custom Start G-code
G92 E0 ; Reset Extruder
G28 ; Home all axes
G1 Z2.0 F3000 ; Move Z Axis up little to prevent scratching of Heat Bed
G1 X0.1 Y20 Z0.3 F5000.0 ; Move to start position
G1 X0.1 Y200.0 Z0.3 F1500.0 E15 ; Draw the first line
G1 X0.4 Y200.0 Z0.3 F5000.0 ; Move to side a little
G1 X0.4 Y20 Z0.3 F1500.0 E30 ; Draw the second line
G92 E0 ; Reset Extruder
G1 Z2.0 F3000 ; Move Z Axis up little to prevent scratching of Heat Bed
G1 X5 Y20 Z0.3 F5000.0 ; Move over to prevent blob squish
G92 E0
G92 E0
G1 F1500 E-6.5
;LAYER_COUNT:150
;LAYER:0
M107
G0 F6000 X82.67 Y94.31 Z0.2
;TYPE:SKIRT
G1 F1500 E0
G1 F1200 X83.38 Y93.721 E0.03068
G1 X84.138 Y93.145 E0.06235
G1 X85.163 Y92.391 E0.10467
G1 X85.715 Y91.998 E0.12721
G1 X86.502 Y91.487 E0.15842
G1 X87.023 Y91.198 E0.17823
G1 X88.108 Y90.634 E0.2189
G1 X90.417 Y89.394 E0.30607
G1 X92.605 Y88.136 E0.39002
G1 X94.737 Y86.83 E0.47318
G1 X96.852 Y85.449 E0.55719
G1 X98.94 Y84.001 E0.6417
G1 X100.932 Y82.535 E0.72396
G1 X102.942 Y80.965 E0.80879
G1 X103.191 Y80.764 E0.81944
G1 X103.579 Y80.458 E0.83587
G1 X103.823 Y80.271 E0.8461
G1 X104.042 Y80.108 E0.85518
G1 X104.466 Y79.808 E0.87245
G1 X104.91 Y79.509 E0.89026
G1 X105.44 Y79.173 E0.91113
G1 X105.622 Y79.065 E0.91817
G1 X106.012 Y78.844 E0.93308
G1 X106.479 Y78.592 E0.95073
G1 X107.106 Y78.28 E0.97402
G1 X107.306 Y78.188 E0.98134
G1 X107.703 Y78.015 E0.99575
G1 X108.204 Y77.808 E1.01377
G1 X108.814 Y77.576 E1.03548
G1 X109.037 Y77.499 E1.04333
G1 X109.49 Y77.354 E1.05915
G1 X109.984 Y77.207 E1.07629
G1 X110.529 Y77.06 E1.09506
G1 X110.76 Y77.004 E1.10297
G1 X111.28 Y76.891 E1.12067
G1 X111.791 Y76.793 E1.13798
G1 X112.436 Y76.689 E1.1597
G1 X112.673 Y76.658 E1.16765
G1 X113.152 Y76.606 E1.18368
G1 X113.672 Y76.561 E1.20104
G1 X114.312 Y76.524 E1.22236
G1 X114.562 Y76.517 E1.23068
G1 X115.024 Y76.514 E1.24605
G1 X115.524 Y76.521 E1.26268
G1 X116.145 Y76.547 E1.28335
G1 X116.4 Y76.565 E1.29185
G1 X116.881 Y76.61 E1.30792
G1 X117.403 Y76.67 E1.3254
G1 X118.014 Y76.758 E1.34593
G1 X118.223 Y76.794 E1.35298
G1 X118.71 Y76.889 E1.36949
G1 X119.244 Y77.006 E1.38767
G1 X119.925 Y77.178 E1.41103
G1 X120.134 Y77.238 E1.41826
G1 X120.553 Y77.367 E1.43284
G1 X121.061 Y77.535 E1.45064
G1 X121.619 Y77.737 E1.47038
G1 X121.836 Y77.822 E1.47813
G1 X122.303 Y78.017 E1.49496
G1 X122.783 Y78.231 E1.51244
G1 X123.279 Y78.467 E1.53071
G1 X123.49 Y78.574 E1.53858
G1 X124.029 Y78.867 E1.55898
G1 X124.464 Y79.119 E1.5757
G1 X124.938 Y79.409 E1.59419
G1 X125.163 Y79.555 E1.60311
G1 X125.59 Y79.847 E1.62031
G1 X125.994 Y80.137 E1.63685
G1 X126.455 Y80.487 E1.6561
G1 X126.686 Y80.672 E1.66595
G1 X126.984 Y80.919 E1.67882
G1 X128.965 Y82.544 E1.76404
G1 X130.971 Y84.096 E1.8484
G1 X132.984 Y85.567 E1.93132
G1 X135.09 Y87.013 E2.01629
G1 X137.176 Y88.362 E2.09891
G1 X139.333 Y89.67 E2.18282
G1 X142.159 Y91.264 E2.29073
G1 X142.775 Y91.599 E2.31405
G1 X143.355 Y91.924 E2.33616
G1 X143.831 Y92.206 E2.35457
G1 X143.979 Y92.299 E2.36038
G1 X144.246 Y92.473 E2.37098
G1 X144.727 Y92.797 E2.39027
G1 X146.415 Y93.966 E2.45856
G1 X146.955 Y94.351 E2.48062
G1 X147.695 Y94.928 E2.51183
G1 X148.602 Y95.793 E2.55352
G1 X149.653 Y96.917 E2.6047
G1 X149.928 Y97.215 E2.61818
G1 X150.654 Y97.992 E2.65355
G1 X151.265 Y98.704 E2.68476
G1 X151.813 Y99.465 E2.71595
G1 X152.294 Y100.27 E2.74714
G1 X152.705 Y101.113 E2.77833
G1 X153.021 Y101.928 E2.8074
G1 X153.196 Y102.437 E2.82531
G1 X153.308 Y102.781 E2.83734
G1 X153.466 Y103.295 E2.85522
G1 X153.704 Y104.202 E2.88641
G1 X153.862 Y105.127 E2.91762
G1 X153.942 Y106.061 E2.9488
G1 X153.942 Y106.999 E2.98
G1 X153.862 Y107.933 E3.01118
G1 X153.644 Y109.114 E3.05112
G1 X153.489 Y109.749 E3.07286
G1 X153.064 Y111.41 E3.12989
G1 X152.509 Y113.87 E3.21376
G1 X152.014 Y116.381 E3.29889
G1 X151.608 Y118.819 E3.38109
G1 X151.267 Y121.284 E3.46386
G1 X150.989 Y123.829 E3.54901
G1 X150.785 Y126.337 E3.6327
G1 X150.719 Y127.31 E3.66514
G1 X150.616 Y128.242 E3.69633
G1 X150.434 Y129.162 E3.72752
G1 X150.264 Y129.781 E3.74887
G1 X150.066 Y130.429 E3.77141
G1 X149.958 Y130.764 E3.78311
G1 X149.823 Y131.16 E3.79703
G1 X149.482 Y132.034 E3.82823
G1 X149.069 Y132.876 E3.85942
G1 X148.585 Y133.68 E3.89064
G1 X148.035 Y134.439 E3.92181
G1 X147.422 Y135.149 E3.95301
G1 X146.751 Y135.804 E3.9842
G1 X146.026 Y136.4 E4.01541
G1 X145.536 Y136.748 E4.0354
G1 X144.77 Y137.26 E4.06605
G1 X144.02 Y137.745 E4.09575
G1 X143.385 Y138.144 E4.1207
G1 X142.328 Y138.73 E4.16089
G1 X141.554 Y139.103 E4.18947
G1 X140.441 Y139.618 E4.23026
G1 X139.858 Y139.88 E4.25152
G1 X138.987 Y140.228 E4.28272
G1 X138.308 Y140.441 E4.30638
G1 X137.234 Y140.741 E4.34347
G1 X137.014 Y140.8 E4.35105
G1 X136.306 Y140.981 E4.37535
G1 X135.683 Y141.132 E4.39668
G1 X135.386 Y141.2 E4.40681
G1 X134.501 Y141.388 E4.4369
G1 X133.271 Y141.632 E4.47861
G1 X130.864 Y142.179 E4.56071
G1 X128.409 Y142.812 E4.64503
G1 X125.982 Y143.51 E4.72903
G1 X123.591 Y144.272 E4.81249
G1 X121.286 Y145.079 E4.89372
G1 X120.571 Y145.332 E4.91894
G1 X119.653 Y145.613 E4.95088
G1 X119.101 Y145.756 E4.96984
G1 X118.183 Y145.953 E5.00107
G1 X117.297 Y146.066 E5.03078
G1 X116.379 Y146.146 E5.06143
G1 X115.442 Y146.188 E5.09262
G1 X114.517 Y146.151 E5.12341
G1 X113.925 Y146.102 E5.14317
G1 X112.994 Y145.984 E5.17438
G1 X112.076 Y145.788 E5.2056
G1 X111.28 Y145.582 E5.23295
G1 X110.864 Y145.466 E5.24731
G1 X110.043 Y145.19 E5.27612
G1 X109.292 Y144.904 E5.30285
G1 X106.849 Y144.013 E5.38934
G1 X104.456 Y143.216 E5.47323
G1 X102.055 Y142.491 E5.55665
G1 X99.626 Y141.831 E5.64037
G1 X97.137 Y141.23 E5.72553
G1 X93.721 Y140.511 E5.84164
G1 X92.812 Y140.278 E5.87285
G1 X92.211 Y140.077 E5.89393
G1 X91.278 Y139.734 E5.92699
G1 X90.121 Y139.287 E5.96824
G1 X89.449 Y139.016 E5.99234
G1 X88.346 Y138.498 E6.03287
G1 X87.581 Y138.084 E6.0618
G1 X86.043 Y137.225 E6.12039
G1 X85.533 Y136.931 E6.13997
G1 X84.43 Y136.203 E6.18393
G1 X83.492 Y135.5 E6.22292
G1 X83.305 Y135.357 E6.23075
G1 X82.492 Y134.719 E6.26512
G1 X81.932 Y134.267 E6.28906
G1 X81.228 Y133.647 E6.32026
G1 X80.353 Y132.704 E6.36304
G1 X80.148 Y132.451 E6.37387
G1 X79.566 Y131.714 E6.40511
G1 X78.639 Y130.574 E6.45398
G1 X78.09 Y129.879 E6.48344
G1 X77.541 Y129.118 E6.51465
G1 X76.947 Y128.104 E6.55373
G1 X76.818 Y127.854 E6.56309
G1 X76.651 Y127.518 E6.57557
G1 X75.925 Y125.985 E6.63199
G1 X75.581 Y125.235 E6.65943
G1 X75.222 Y124.353 E6.6911
G1 X74.942 Y123.568 E6.71882
G1 X74.375 Y121.912 E6.77704
G1 X74.145 Y121.211 E6.80158
G1 X73.891 Y120.308 E6.83278
G1 X73.715 Y119.387 E6.86396
G1 X73.64 Y118.754 E6.88517
G1 X73.566 Y117.911 E6.91331
G1 X73.506 Y117.116 E6.93983
G1 X73.492 Y116.892 E6.94729
G1 X73.376 Y114.764 E7.01818
G1 X73.347 Y113.975 E7.04444
G1 X73.327 Y113.074 E7.07441
G1 X73.346 Y112.136 E7.10562
G1 X73.446 Y111.204 E7.13679
G1 X73.559 Y110.572 E7.15815
G1 X73.65 Y110.151 E7.17247
G1 X73.757 Y109.692 E7.18815
G1 X74.073 Y108.396 E7.23251
G1 X74.174 Y108.006 E7.24591
G1 X74.275 Y107.644 E7.25841
G1 X74.661 Y106.339 E7.30368
G1 X74.732 Y106.109 E7.31168
G1 X75.009 Y105.242 E7.34196
G1 X75.227 Y104.588 E7.36489
G1 X75.562 Y103.712 E7.39608
G1 X75.824 Y103.148 E7.41676
G1 X76.147 Y102.502 E7.44078
G1 X76.715 Y101.407 E7.48181
G1 X77.027 Y100.825 E7.50378
G1 X77.505 Y100.018 E7.53497
G1 X78.091 Y99.202 E7.56839
G1 X78.754 Y98.363 E7.60395
G1 X78.892 Y98.192 E7.61126
G1 X79.412 Y97.562 E7.63843
G1 X79.862 Y97.031 E7.66158
G1 X80.476 Y96.365 E7.69171
G1 X80.645 Y96.196 E7.69966
G1 X80.867 Y95.98 E7.70996
G1 X82.027 Y94.894 E7.76281
G1 X82.158 Y94.773 E7.76874
G1 X82.67 Y94.31 E7.7917
G0 F6000 X82.938 Y94.607
G1 F1200 X83.622 Y94.039 E7.82127
G1 X84.375 Y93.467 E7.85273
G1 X85.395 Y92.717 E7.89483
G1 X85.947 Y92.324 E7.91737
G1 X86.72 Y91.823 E7.94801
G1 X87.207 Y91.553 E7.96653
G1 X88.361 Y90.953 E8.00979
G1 X90.6 Y89.75 E8.09433
G1 X92.792 Y88.49 E8.17842
G1 X94.959 Y87.163 E8.26294
G1 X97.077 Y85.781 E8.34705
G1 X99.159 Y84.336 E8.43134
G1 X101.17 Y82.856 E8.51439
G1 X103.208 Y81.265 E8.60038
G1 X103.439 Y81.078 E8.61027
G1 X103.827 Y80.772 E8.6267
G1 X104.062 Y80.592 E8.63655
G1 X104.281 Y80.429 E8.64563
G1 X104.689 Y80.14 E8.66226
G1 X105.133 Y79.841 E8.68006
G1 X105.645 Y79.517 E8.70021
G1 X105.827 Y79.409 E8.70725
G1 X106.202 Y79.196 E8.7216
G1 X106.669 Y78.944 E8.73925
G1 X107.273 Y78.643 E8.76169
G1 X107.473 Y78.551 E8.76901
G1 X107.855 Y78.384 E8.78288
G1 X108.356 Y78.177 E8.80091
G1 X108.944 Y77.954 E8.82183
G1 X109.167 Y77.877 E8.82967
G1 X109.604 Y77.737 E8.84494
G1 X110.098 Y77.59 E8.86208
G1 X110.624 Y77.448 E8.8802
G1 X110.855 Y77.392 E8.88811
G1 X111.356 Y77.284 E8.90515
G1 X111.867 Y77.186 E8.92246
G1 X112.488 Y77.086 E8.94338
G1 X112.725 Y77.055 E8.95133
G1 X113.186 Y77.004 E8.96675
G1 X113.706 Y76.959 E8.98411
G1 X114.323 Y76.924 E9.00467
G1 X114.573 Y76.917 E9.01299
G1 X115.018 Y76.914 E9.02779
G1 X115.518 Y76.921 E9.04442
G1 X116.116 Y76.946 E9.06433
G1 X116.371 Y76.964 E9.07283
G1 X116.835 Y77.007 E9.08833
G1 X117.357 Y77.067 E9.1058
G1 X117.946 Y77.152 E9.1256
G1 X118.155 Y77.188 E9.13265
G1 X118.625 Y77.28 E9.14858
G1 X119.159 Y77.397 E9.16676
G1 X119.815 Y77.563 E9.18927
G1 X120.024 Y77.623 E9.1965
G1 X120.427 Y77.747 E9.21052
G1 X120.935 Y77.915 E9.22832
G1 X121.473 Y78.109 E9.24734
G1 X121.69 Y78.194 E9.25509
G1 X122.14 Y78.383 E9.27133
G1 X122.62 Y78.597 E9.28881
G1 X123.098 Y78.824 E9.30641
G1 X123.309 Y78.931 E9.31428
G1 X123.828 Y79.213 E9.33392
G1 X124.263 Y79.465 E9.35064
G1 X124.72 Y79.745 E9.36847
G1 X124.945 Y79.891 E9.37739
G1 X125.356 Y80.172 E9.39395
G1 X125.76 Y80.462 E9.41049
G1 X126.205 Y80.799 E9.42905
G1 X126.436 Y80.984 E9.4389
G1 X128.729 Y82.868 E9.5376
G1 X130.713 Y84.403 E9.62104
G1 X132.766 Y85.903 E9.7056
G1 X134.852 Y87.335 E9.78976
G1 X136.957 Y88.696 E9.87313
G1 X139.135 Y90.017 E9.95786
G1 X141.971 Y91.617 E10.06616
G1 X142.58 Y91.948 E10.08921
G1 X143.16 Y92.273 E10.11132
G1 X143.618 Y92.545 E10.12904
G1 X143.766 Y92.638 E10.13485
G1 X144.024 Y92.805 E10.14508
G1 X144.499 Y93.125 E10.16413
G1 X146.183 Y94.292 E10.23227
G1 X146.723 Y94.677 E10.25433
G1 X147.448 Y95.244 E10.28494
G1 X148.31 Y96.067 E10.32458
G1 X149.359 Y97.188 E10.37564
G1 X149.634 Y97.486 E10.38913
G1 X150.362 Y98.265 E10.42459
G1 X150.961 Y98.964 E10.45521
G1 X151.497 Y99.713 E10.48584
G1 X151.966 Y100.505 E10.51646
G1 X152.365 Y101.335 E10.54709
G1 X152.643 Y102.058 E10.57285
G1 X152.818 Y102.567 E10.59075
G1 X152.926 Y102.898 E10.60233
G1 X153.084 Y103.412 E10.62022
G1 X153.316 Y104.303 E10.65084
G1 X153.47 Y105.211 E10.68147
G1 X153.545 Y106.129 E10.71211
G1 X153.539 Y107.049 E10.74271
G1 X153.454 Y107.966 E10.77334
G1 X153.255 Y109.02 E10.80901
G1 X153.101 Y109.65 E10.83058
G1 X152.68 Y111.295 E10.88706
G1 X152.114 Y113.801 E10.97251
G1 X151.627 Y116.276 E11.05641
G1 X151.211 Y118.77 E11.1405
G1 X150.868 Y121.257 E11.22401
G1 X150.591 Y123.786 E11.30862
G1 X150.388 Y126.28 E11.39185
G1 X150.32 Y127.283 E11.42528
G1 X150.218 Y128.198 E11.45591
G1 X150.037 Y129.1 E11.4865
G1 X149.881 Y129.665 E11.506
G1 X149.683 Y130.313 E11.52854
G1 X149.579 Y130.635 E11.53979
G1 X149.444 Y131.031 E11.55371
G1 X149.109 Y131.889 E11.58434
G1 X148.702 Y132.714 E11.61494
G1 X148.224 Y133.501 E11.64556
G1 X147.679 Y134.244 E11.67621
G1 X147.073 Y134.936 E11.70681
G1 X146.408 Y135.573 E11.73743
G1 X145.691 Y136.151 E11.76807
G1 X145.313 Y136.416 E11.78342
G1 X144.685 Y136.837 E11.80857
G1 X143.808 Y137.406 E11.84334
G1 X143.173 Y137.805 E11.86828
G1 X142.154 Y138.37 E11.90703
G1 X141.386 Y138.74 E11.93539
G1 X140.277 Y139.254 E11.97604
G1 X139.694 Y139.516 E11.9973
G1 X138.839 Y139.856 E12.0279
G1 X138.201 Y140.056 E12.05014
G1 X137.127 Y140.356 E12.08723
G1 X136.915 Y140.413 E12.09453
G1 X136.212 Y140.593 E12.11867
G1 X135.589 Y140.744 E12.13999
G1 X135.302 Y140.809 E12.14978
G1 X134.423 Y140.995 E12.17966
G1 X133.209 Y141.235 E12.22082
G1 X130.781 Y141.788 E12.30364
G1 X128.27 Y142.435 E12.38989
G1 X125.887 Y143.12 E12.47236
G1 X123.485 Y143.886 E12.55621
G1 X121.154 Y144.701 E12.63834
G1 X120.437 Y144.955 E12.66364
G1 X119.552 Y145.226 E12.69443
G1 X119 Y145.369 E12.71339
G1 X118.1 Y145.561 E12.744
G1 X117.262 Y145.668 E12.7721
G1 X116.344 Y145.748 E12.80275
G1 X115.424 Y145.788 E12.83337
G1 X114.55 Y145.752 E12.86247
G1 X113.958 Y145.703 E12.88223
G1 X113.044 Y145.587 E12.91287
G1 X112.176 Y145.401 E12.94239
G1 X111.38 Y145.195 E12.96974
G1 X110.976 Y145.082 E12.98369
G1 X110.185 Y144.816 E13.01145
G1 X109.423 Y144.526 E13.03857
G1 X106.976 Y143.634 E13.12519
G1 X104.583 Y142.836 E13.2091
G1 X102.179 Y142.11 E13.29262
G1 X99.711 Y141.44 E13.37768
G1 X97.216 Y140.837 E13.46305
G1 X93.803 Y140.12 E13.57904
G1 X92.912 Y139.89 E13.60965
G1 X92.348 Y139.702 E13.62942
G1 X91.422 Y139.361 E13.66224
G1 X90.271 Y138.916 E13.70329
G1 X89.599 Y138.645 E13.72739
G1 X88.536 Y138.146 E13.76645
G1 X87.776 Y137.735 E13.79518
G1 X86.243 Y136.878 E13.8536
G1 X85.733 Y136.584 E13.87318
G1 X84.67 Y135.883 E13.91553
G1 X83.732 Y135.18 E13.95451
G1 X83.552 Y135.042 E13.96206
G1 X82.743 Y134.407 E13.99627
G1 X82.183 Y133.955 E14.0202
G1 X81.493 Y133.347 E14.05079
G1 X80.662 Y132.449 E14.09148
G1 X80.462 Y132.203 E14.10203
G1 X79.872 Y131.456 E14.13369
G1 X78.953 Y130.326 E14.18213
G1 X78.404 Y129.631 E14.21159
G1 X77.865 Y128.884 E14.24223
G1 X77.302 Y127.921 E14.27933
G1 X77.173 Y127.671 E14.28869
G1 X77.013 Y127.347 E14.3007
G1 X76.231 Y125.695 E14.3615
G1 X75.944 Y125.069 E14.3844
G1 X75.598 Y124.218 E14.41495
G1 X75.32 Y123.438 E14.4425
G1 X74.755 Y121.788 E14.5005
G1 X74.525 Y121.087 E14.52504
G1 X74.277 Y120.2 E14.55567
G1 X74.106 Y119.296 E14.58628
G1 X74.038 Y118.719 E14.6056
G1 X73.965 Y117.881 E14.63358
G1 X73.905 Y117.086 E14.66009
G1 X73.891 Y116.87 E14.66729
G1 X73.785 Y114.942 E14.73152
G1 X73.776 Y114.749 E14.73794
G1 X73.747 Y113.96 E14.7642
G1 X73.727 Y113.065 E14.79398
G1 X73.746 Y112.145 E14.82458
G1 X73.846 Y111.23 E14.8552
G1 X73.951 Y110.654 E14.87467
G1 X74.04 Y110.242 E14.88869
G1 X74.146 Y109.787 E14.90423
G1 X74.421 Y108.654 E14.94301
G1 X74.562 Y108.107 E14.96179
G1 X74.658 Y107.757 E14.97387
G1 X75.044 Y106.452 E15.01913
G1 X75.113 Y106.23 E15.02686
G1 X75.389 Y105.369 E15.05693
G1 X75.607 Y104.715 E15.07986
G1 X75.936 Y103.855 E15.11049
G1 X76.182 Y103.327 E15.12986
G1 X76.578 Y102.538 E15.15922
G1 X77.068 Y101.596 E15.19454
G1 X77.38 Y101.014 E15.2165
G1 X77.85 Y100.222 E15.24713
G1 X78.405 Y99.45 E15.27876
G1 X79.068 Y98.611 E15.31432
G1 X79.201 Y98.446 E15.32137
G1 X79.717 Y97.821 E15.34833
G1 X80.167 Y97.29 E15.37148
G1 X80.759 Y96.648 E15.40053
G1 X80.928 Y96.479 E15.40847
G1 X81.141 Y96.271 E15.41838
G1 X82.3 Y95.186 E15.47118
G1 X82.938 Y94.607 E15.49984
G0 F6000 X83.207 Y94.904
G1 F1200 X83.865 Y94.357 E15.5283
G1 X84.612 Y93.789 E15.55951
G1 X85.627 Y93.043 E15.6014
G1 X86.179 Y92.65 E15.62394
G1 X86.937 Y92.159 E15.65398
G1 X87.392 Y91.908 E15.67126
G1 X88.498 Y91.333 E15.71272
G1 X90.809 Y90.092 E15.79997
G1 X92.994 Y88.835 E15.88381
G1 X95.181 Y87.496 E15.9691
G1 X97.278 Y86.128 E16.05238
G1 X99.404 Y84.653 E16.13844
G1 X101.408 Y83.178 E16.2212
G1 X103.473 Y81.564 E16.30837
G1 X103.687 Y81.392 E16.3175
G1 X104.075 Y81.086 E16.33394
G1 X104.301 Y80.913 E16.34341
G1 X104.52 Y80.75 E16.35249
G1 X104.913 Y80.472 E16.3685
G1 X105.357 Y80.173 E16.3863
G1 X105.849 Y79.861 E16.40568
G1 X106.031 Y79.753 E16.41272
G1 X106.392 Y79.549 E16.42651
G1 X106.859 Y79.297 E16.44416
G1 X107.44 Y79.006 E16.46577
G1 X107.64 Y78.914 E16.47309
G1 X108.008 Y78.754 E16.48644
G1 X108.509 Y78.547 E16.50447
G1 X109.075 Y78.333 E16.52459
G1 X109.298 Y78.256 E16.53244
G1 X109.718 Y78.121 E16.54711
G1 X110.212 Y77.974 E16.56426
G1 X110.718 Y77.837 E16.58169
G1 X110.949 Y77.781 E16.5896
G1 X111.431 Y77.677 E16.606
G1 X111.942 Y77.579 E16.6233
G1 X112.54 Y77.482 E16.64345
G1 X112.777 Y77.451 E16.6514
G1 X113.221 Y77.403 E16.66626
G1 X113.741 Y77.358 E16.68362
