;FLAVOR:Marlin
;TIME:508
;Filament used: 0.254886m
;Layer height: 0.2
;MINX:95.014
;MINY:95.012
;MINZ:0.2
;MAXX:134.99
;MAXY:134.986
;MAXZ:7
;Generated with Cura_SteamEngine 4.12.1
M140 S60
M105
M190 S60
M104 S200
M105
M109 S200
M82 ;absolute extrusion mode
; Ender 3 Custom Start G-code
G92 E0 ; Reset Extruder
G28 ; Home all axes
G1 Z2.0 F3000 ; Move Z Axis up little to prevent scratching of Heat Bed
G1 X0.1 Y20 Z0.3 F5000.0 ; Move to start position
G1 X0.1 Y200.0 Z0.3 F1500.0 E15 ; Draw the first line
G1 X0.4 Y200.0 Z0.3 F5000.0 ; Move to side a little
G1 X0.4 Y20 Z0.3 F1500.0 E30 ; Draw the second line
G92 E0 ; Reset Extruder
G1 Z2.0 F3000 ; Move Z Axis up little to prevent scratching of Heat Bed
G1 X5 Y20 Z0.3 F5000.0 ; Move over to prevent blob squish
G92 E0
G92 E0
G1 F1500 E-6.5
;LAYER_COUNT:35
;LAYER:0
M107
G0 F6000 X100.66 Y101.081 Z0.2
;TYPE:SKIRT
G1 F1500 E0
G1 F1200 X101.118 Y100.623 E0.02154
G1 X101.581 Y100.186 E0.04272
G1 X101.8 Y99.991 E0.05247
G1 X102.19 Y99.66 E0.06948
G1 X102.675 Y99.267 E0.09025
G1 X103.161 Y98.894 E0.11062
G1 X103.366 Y98.746 E0.11903
G1 X103.757 Y98.477 E0.13482
G1 X104.313 Y98.111 E0.15696
G1 X104.865 Y97.77 E0.17854
G1 X105.08 Y97.646 E0.18679
G1 X105.513 Y97.41 E0.2032
G1 X106.107 Y97.102 E0.22545
G1 X106.699 Y96.817 E0.2473
G1 X106.98 Y96.692 E0.25753
G1 X107.461 Y96.491 E0.27487
G1 X108.057 Y96.259 E0.29614
G1 X108.615 Y96.059 E0.31586
G1 X108.886 Y95.97 E0.32534
G1 X109.399 Y95.815 E0.34317
G1 X110.013 Y95.646 E0.36435
G1 X110.622 Y95.497 E0.3852
G1 X110.92 Y95.433 E0.39534
G1 X111.401 Y95.341 E0.41163
G1 X112.006 Y95.239 E0.43203
G1 X112.605 Y95.155 E0.45215
G1 X113.089 Y95.103 E0.46834
G1 X113.485 Y95.072 E0.48155
G1 X114.09 Y95.034 E0.50172
G1 X114.78 Y95.012 E0.52468
G1 X115.068 Y95.012 E0.53426
G1 X115.508 Y95.021 E0.54889
G1 X116.132 Y95.046 E0.56967
G1 X116.775 Y95.09 E0.5911
G1 X117.048 Y95.117 E0.60023
G1 X117.513 Y95.174 E0.61581
G1 X118.153 Y95.265 E0.63731
G1 X118.769 Y95.37 E0.65809
G1 X119.063 Y95.429 E0.66807
G1 X119.599 Y95.551 E0.68635
G1 X120.223 Y95.709 E0.70776
G1 X120.787 Y95.868 E0.72725
G1 X121.038 Y95.946 E0.73599
G1 X121.524 Y96.109 E0.75304
G1 X122.139 Y96.332 E0.7748
G1 X122.716 Y96.56 E0.79543
G1 X123.165 Y96.755 E0.81171
G1 X123.489 Y96.907 E0.82362
G1 X124.023 Y97.166 E0.84336
G1 X124.609 Y97.472 E0.86534
G1 X124.869 Y97.618 E0.87526
G1 X125.271 Y97.855 E0.89078
G1 X125.793 Y98.178 E0.9112
G1 X126.357 Y98.551 E0.93369
G1 X126.603 Y98.725 E0.94371
G1 X126.967 Y98.995 E0.95879
G1 X127.491 Y99.399 E0.98079
G1 X128.05 Y99.86 E1.00489
G1 X128.27 Y100.054 E1.01465
G1 X128.585 Y100.342 E1.02884
G1 X129.034 Y100.77 E1.04948
G1 X129.498 Y101.24 E1.07144
G1 X129.698 Y101.455 E1.08121
G1 X130.006 Y101.8 E1.09659
G1 X130.412 Y102.275 E1.11737
G1 X130.837 Y102.805 E1.13997
G1 X131.02 Y103.048 E1.15009
G1 X131.296 Y103.431 E1.16579
G1 X131.664 Y103.966 E1.18739
G1 X132.058 Y104.582 E1.21171
G1 X132.216 Y104.848 E1.222
G1 X132.401 Y105.172 E1.23441
G1 X132.681 Y105.682 E1.25376
G1 X132.973 Y106.252 E1.27506
G1 X133.165 Y106.661 E1.29009
G1 X133.311 Y106.994 E1.30218
G1 X133.541 Y107.539 E1.32185
G1 X133.777 Y108.146 E1.34352
G1 X133.88 Y108.437 E1.35378
G1 X134.039 Y108.921 E1.37073
G1 X134.226 Y109.539 E1.3922
G1 X134.399 Y110.181 E1.41432
G1 X134.467 Y110.467 E1.42409
G1 X134.561 Y110.9 E1.43883
G1 X134.674 Y111.478 E1.45842
G1 X134.765 Y112.014 E1.4765
G1 X134.799 Y112.249 E1.4844
G1 X134.859 Y112.741 E1.50089
G1 X134.882 Y112.973 E1.50864
G1 X134.937 Y113.6 E1.52957
G1 X134.966 Y114.008 E1.54318
G1 X134.985 Y114.559 E1.56152
G1 X134.99 Y115.028 E1.57711
G1 X134.981 Y115.606 E1.59634
G1 X134.968 Y115.916 E1.60666
G1 X134.953 Y116.201 E1.61615
G1 X134.939 Y116.407 E1.62302
G1 X134.907 Y116.785 E1.63564
G1 X134.879 Y117.058 E1.64477
G1 X134.807 Y117.674 E1.66539
G1 X134.703 Y118.368 E1.68873
G1 X134.648 Y118.67 E1.69894
G1 X134.559 Y119.107 E1.71378
G1 X134.428 Y119.691 E1.73368
G1 X134.264 Y120.332 E1.75569
G1 X134.176 Y120.637 E1.76625
G1 X134.035 Y121.088 E1.78196
G1 X133.839 Y121.672 E1.80245
G1 X133.632 Y122.238 E1.8225
G1 X133.521 Y122.517 E1.83248
G1 X133.312 Y123.008 E1.85023
G1 X133.053 Y123.577 E1.87103
G1 X132.758 Y124.176 E1.89323
G1 X132.611 Y124.453 E1.90366
G1 X132.383 Y124.861 E1.91921
G1 X132.081 Y125.376 E1.93907
G1 X131.796 Y125.836 E1.95706
G1 X131.652 Y126.056 E1.96581
G1 X131.34 Y126.508 E1.98408
G1 X130.954 Y127.038 E2.00588
G1 X130.544 Y127.566 E2.02812
G1 X130.345 Y127.807 E2.03851
G1 X130.043 Y128.158 E2.05392
G1 X129.624 Y128.624 E2.07476
G1 X129.123 Y129.145 E2.0988
G1 X128.883 Y129.379 E2.10995
G1 X128.571 Y129.671 E2.12416
G1 X128.153 Y130.048 E2.14288
G1 X127.721 Y130.418 E2.1618
G1 X127.508 Y130.591 E2.17093
G1 X127.064 Y130.933 E2.18957
G1 X126.525 Y131.327 E2.21177
G1 X126.01 Y131.682 E2.23258
G1 X125.738 Y131.858 E2.24335
G1 X125.28 Y132.139 E2.26123
G1 X124.742 Y132.451 E2.28191
G1 X124.205 Y132.743 E2.30224
G1 X123.949 Y132.873 E2.31179
G1 X123.498 Y133.089 E2.32842
G1 X122.905 Y133.357 E2.35007
G1 X122.206 Y133.644 E2.3752
G1 X121.918 Y133.751 E2.38542
G1 X121.524 Y133.889 E2.3993
G1 X120.913 Y134.09 E2.4207
G1 X120.374 Y134.252 E2.43941
G1 X120.136 Y134.317 E2.44762
G1 X119.604 Y134.449 E2.46585
G1 X118.982 Y134.586 E2.48704
G1 X118.351 Y134.705 E2.50839
G1 X118.038 Y134.755 E2.51893
G1 X117.554 Y134.822 E2.53519
G1 X116.951 Y134.891 E2.55537
G1 X116.31 Y134.945 E2.57677
G1 X115.986 Y134.963 E2.58756
G1 X115.505 Y134.979 E2.60357
G1 X114.906 Y134.986 E2.62349
G1 X114.261 Y134.975 E2.64495
G1 X113.963 Y134.961 E2.65487
G1 X113.478 Y134.927 E2.67104
G1 X112.843 Y134.869 E2.69225
G1 X112.169 Y134.787 E2.71483
G1 X111.851 Y134.738 E2.72553
G1 X111.386 Y134.656 E2.74124
G1 X110.776 Y134.535 E2.76192
G1 X110.133 Y134.387 E2.78387
G1 X109.873 Y134.319 E2.79281
G1 X109.425 Y134.192 E2.80829
G1 X108.797 Y133.999 E2.83015
G1 X108.102 Y133.76 E2.85459
G1 X107.801 Y133.645 E2.86531
G1 X107.448 Y133.503 E2.87796
G1 X106.908 Y133.275 E2.89746
G1 X106.297 Y132.994 E2.91983
G1 X106.025 Y132.859 E2.92993
G1 X105.627 Y132.652 E2.94485
G1 X105.098 Y132.362 E2.96491
G1 X104.485 Y131.999 E2.98861
G1 X104.205 Y131.821 E2.99964
G1 X103.848 Y131.585 E3.01388
G1 X103.342 Y131.235 E3.03434
G1 X102.843 Y130.868 E3.05494
G1 X102.667 Y130.731 E3.06236
G1 X102.328 Y130.457 E3.07686
G1 X102.138 Y130.296 E3.08514
G1 X101.691 Y129.91 E3.10478
G1 X101.224 Y129.483 E3.12583
G1 X101.028 Y129.293 E3.13491
G1 X100.697 Y128.958 E3.15057
G1 X100.251 Y128.487 E3.17215
G1 X99.842 Y128.031 E3.19252
G1 X99.682 Y127.842 E3.20076
G1 X99.36 Y127.443 E3.21781
G1 X98.953 Y126.914 E3.24001
G1 X98.565 Y126.377 E3.26205
G1 X98.401 Y126.135 E3.27177
G1 X98.139 Y125.73 E3.28781
G1 X97.806 Y125.189 E3.30894
G1 X97.523 Y124.701 E3.3277
G1 X97.418 Y124.509 E3.33498
G1 X97.219 Y124.128 E3.34928
G1 X97.124 Y123.936 E3.3564
G1 X96.848 Y123.364 E3.37753
G1 X96.576 Y122.753 E3.39977
G1 X96.465 Y122.482 E3.40951
G1 X96.3 Y122.056 E3.42471
G1 X96.093 Y121.484 E3.44494
G1 X95.883 Y120.843 E3.46737
G1 X95.796 Y120.547 E3.47763
G1 X95.67 Y120.077 E3.49382
G1 X95.515 Y119.448 E3.51537
G1 X95.368 Y118.761 E3.53873
G1 X95.315 Y118.466 E3.5487
G1 X95.246 Y118.03 E3.56338
G1 X95.16 Y117.409 E3.58424
G1 X95.093 Y116.8 E3.60461
G1 X95.071 Y116.532 E3.61356
G1 X95.042 Y116.039 E3.62998
G1 X95.018 Y115.39 E3.65158
G1 X95.014 Y114.7 E3.67453
G1 X95.022 Y114.389 E3.68488
G1 X95.044 Y113.922 E3.70043
G1 X95.085 Y113.322 E3.72043
G1 X95.139 Y112.744 E3.73974
G1 X95.175 Y112.448 E3.74966
G1 X95.252 Y111.924 E3.76727
G1 X95.355 Y111.321 E3.78762
G1 X95.465 Y110.765 E3.80647
G1 X95.524 Y110.502 E3.81544
G1 X95.655 Y109.979 E3.83337
G1 X95.825 Y109.364 E3.85459
G1 X95.991 Y108.816 E3.87363
G1 X96.069 Y108.582 E3.88184
G1 X96.191 Y108.238 E3.89398
G1 X96.322 Y107.89 E3.90635
G1 X96.527 Y107.369 E3.92497
G1 X96.786 Y106.764 E3.94686
G1 X96.91 Y106.497 E3.95665
G1 X97.119 Y106.072 E3.9724
G1 X97.41 Y105.51 E3.99345
G1 X97.739 Y104.919 E4.01595
G1 X97.891 Y104.665 E4.02579
G1 X98.132 Y104.28 E4.0409
G1 X98.481 Y103.748 E4.06206
G1 X98.87 Y103.194 E4.08458
G1 X99.045 Y102.96 E4.09429
G1 X99.325 Y102.601 E4.10944
G1 X99.707 Y102.132 E4.12956
G1 X100.133 Y101.639 E4.15123
G1 X100.335 Y101.419 E4.16116
G1 X100.66 Y101.081 E4.17676
G0 F6000 X100.943 Y101.364
G1 F1200 X101.401 Y100.906 E4.1983
G1 X101.847 Y100.484 E4.21872
G1 X102.066 Y100.289 E4.22847
G1 X102.442 Y99.97 E4.24487
G1 X102.927 Y99.577 E4.26564
G1 X103.395 Y99.219 E4.28523
G1 X103.6 Y99.071 E4.29364
G1 X103.977 Y98.811 E4.30888
G1 X104.533 Y98.445 E4.33101
G1 X105.065 Y98.117 E4.3518
G1 X105.28 Y97.993 E4.36006
G1 X105.697 Y97.765 E4.37586
G1 X106.291 Y97.457 E4.39812
G1 X106.862 Y97.182 E4.4192
G1 X107.143 Y97.057 E4.42943
G1 X107.606 Y96.864 E4.44611
G1 X108.202 Y96.632 E4.46738
G1 X108.74 Y96.439 E4.48639
G1 X109.011 Y96.35 E4.49588
G1 X109.505 Y96.201 E4.51304
G1 X110.119 Y96.032 E4.53422
G1 X110.706 Y95.888 E4.55433
G1 X111.004 Y95.824 E4.56446
G1 X111.468 Y95.736 E4.58017
G1 X112.073 Y95.634 E4.60058
G1 X112.65 Y95.552 E4.61996
G1 X113.125 Y95.502 E4.63585
G1 X113.511 Y95.471 E4.64873
G1 X114.116 Y95.433 E4.66889
G1 X114.78 Y95.412 E4.69098
G1 X115.068 Y95.412 E4.70056
G1 X115.492 Y95.42 E4.71467
G1 X116.116 Y95.445 E4.73544
G1 X116.735 Y95.488 E4.75608
G1 X117.008 Y95.515 E4.7652
G1 X117.457 Y95.57 E4.78025
G1 X118.097 Y95.661 E4.80175
G1 X118.691 Y95.762 E4.82179
G1 X118.985 Y95.821 E4.83176
G1 X119.501 Y95.938 E4.84936
G1 X120.125 Y96.096 E4.87077
G1 X120.669 Y96.25 E4.88957
G1 X120.92 Y96.328 E4.89831
G1 X121.387 Y96.485 E4.9147
G1 X122.002 Y96.708 E4.93646
G1 X122.559 Y96.928 E4.95638
G1 X122.999 Y97.119 E4.97233
G1 X123.315 Y97.267 E4.98394
G1 X123.849 Y97.526 E5.00368
G1 X124.413 Y97.821 E5.02485
G1 X124.673 Y97.967 E5.03477
G1 X125.061 Y98.195 E5.04973
G1 X125.583 Y98.518 E5.07015
G1 X126.126 Y98.878 E5.09182
G1 X126.372 Y99.052 E5.10184
G1 X126.723 Y99.311 E5.11635
G1 X127.247 Y99.715 E5.13836
G1 X127.786 Y100.16 E5.1616
G1 X128.006 Y100.354 E5.17136
G1 X128.309 Y100.631 E5.18501
G1 X128.758 Y101.059 E5.20565
G1 X129.205 Y101.512 E5.22681
G1 X129.405 Y101.727 E5.23658
G1 X129.702 Y102.06 E5.25142
G1 X130.108 Y102.535 E5.2722
G1 X130.517 Y103.045 E5.29395
G1 X130.7 Y103.288 E5.30406
G1 X130.966 Y103.658 E5.31922
G1 X131.334 Y104.193 E5.34082
G1 X131.715 Y104.787 E5.36429
G1 X131.873 Y105.053 E5.37458
G1 X132.051 Y105.365 E5.38653
G1 X132.331 Y105.875 E5.40588
G1 X132.612 Y106.424 E5.42639
G1 X132.8 Y106.826 E5.44115
G1 X132.943 Y107.15 E5.45293
G1 X133.173 Y107.695 E5.47261
G1 X133.4 Y108.279 E5.49344
G1 X133.503 Y108.57 E5.50371
G1 X133.656 Y109.037 E5.52006
G1 X133.843 Y109.655 E5.54153
G1 X134.01 Y110.273 E5.56282
G1 X134.078 Y110.559 E5.5726
G1 X134.168 Y110.977 E5.58682
G1 X134.281 Y111.555 E5.60641
G1 X134.369 Y112.071 E5.62382
G1 X134.403 Y112.306 E5.63172
G1 X134.461 Y112.784 E5.64773
G1 X134.483 Y113.008 E5.65522
G1 X134.538 Y113.635 E5.67615
G1 X134.566 Y114.032 E5.68939
G1 X134.585 Y114.563 E5.70706
G1 X134.59 Y115.032 E5.72266
G1 X134.582 Y115.589 E5.74119
G1 X134.569 Y115.899 E5.75151
G1 X134.554 Y116.174 E5.76067
G1 X134.52 Y116.629 E5.77585
G1 X134.481 Y117.012 E5.78865
G1 X134.409 Y117.628 E5.80928
G1 X134.309 Y118.296 E5.83174
G1 X134.254 Y118.598 E5.84195
G1 X134.169 Y119.019 E5.85624
G1 X134.038 Y119.603 E5.87615
G1 X133.88 Y120.221 E5.89736
G1 X133.792 Y120.526 E5.90792
G1 X133.656 Y120.961 E5.92308
G1 X133.46 Y121.545 E5.94357
G1 X133.26 Y122.09 E5.96288
G1 X133.149 Y122.369 E5.97286
G1 X132.948 Y122.842 E5.98996
G1 X132.689 Y123.411 E6.01075
G1 X132.404 Y123.989 E6.03218
G1 X132.257 Y124.266 E6.04261
G1 X132.038 Y124.659 E6.05758
G1 X131.736 Y125.174 E6.07743
G1 X131.461 Y125.617 E6.09478
G1 X131.317 Y125.837 E6.10352
G1 X131.016 Y126.272 E6.12112
G1 X130.63 Y126.802 E6.14292
G1 X130.236 Y127.311 E6.16433
G1 X130.037 Y127.552 E6.17473
G1 X129.745 Y127.89 E6.18958
G1 X129.326 Y128.356 E6.21043
G1 X128.844 Y128.859 E6.2336
G1 X128.604 Y129.093 E6.24475
G1 X128.303 Y129.374 E6.25844
G1 X127.885 Y129.751 E6.27716
G1 X127.469 Y130.108 E6.2954
G1 X127.256 Y130.281 E6.30452
G1 X126.828 Y130.61 E6.32248
G1 X126.289 Y131.004 E6.34469
G1 X125.792 Y131.346 E6.36475
G1 X125.52 Y131.522 E6.37553
G1 X125.08 Y131.793 E6.39271
G1 X124.542 Y132.105 E6.4134
G1 X124.023 Y132.386 E6.43303
G1 X123.767 Y132.516 E6.44258
G1 X123.333 Y132.724 E6.45859
G1 X122.74 Y132.992 E6.48023
G1 X122.067 Y133.269 E6.50444
G1 X121.779 Y133.376 E6.51465
G1 X121.399 Y133.509 E6.52804
G1 X120.788 Y133.71 E6.54944
G1 X120.269 Y133.867 E6.56747
G1 X120.031 Y133.932 E6.57568
G1 X119.518 Y134.058 E6.59325
G1 X118.896 Y134.195 E6.61443
G1 X118.288 Y134.31 E6.63501
G1 X117.975 Y134.36 E6.64556
G1 X117.508 Y134.424 E6.66123
G1 X116.905 Y134.493 E6.68142
G1 X116.288 Y134.546 E6.70202
G1 X115.964 Y134.564 E6.71281
G1 X115.5 Y134.579 E6.72825
G1 X114.901 Y134.586 E6.74817
G1 X114.28 Y134.575 E6.76883
G1 X113.982 Y134.561 E6.77875
G1 X113.515 Y134.529 E6.79432
G1 X112.88 Y134.471 E6.81553
G1 X112.23 Y134.391 E6.83731
G1 X111.912 Y134.342 E6.84802
G1 X111.464 Y134.263 E6.86315
G1 X110.854 Y134.142 E6.88383
G1 X110.234 Y134 E6.90499
G1 X109.974 Y133.932 E6.91392
G1 X109.542 Y133.809 E6.92886
G1 X108.914 Y133.616 E6.95071
G1 X108.245 Y133.386 E6.97424
G1 X107.944 Y133.271 E6.98496
G1 X107.604 Y133.134 E6.99715
G1 X107.064 Y132.906 E7.01665
G1 X106.474 Y132.636 E7.03823
G1 X106.202 Y132.501 E7.04833
G1 X105.819 Y132.301 E7.0627
G1 X105.29 Y132.011 E7.08276
G1 X104.699 Y131.661 E7.10561
G1 X104.419 Y131.483 E7.11665
G1 X104.076 Y131.256 E7.13033
G1 X103.57 Y130.906 E7.15079
G1 X103.089 Y130.553 E7.17063
G1 X102.913 Y130.416 E7.17805
G1 X102.583 Y130.149 E7.19217
G1 X102.399 Y129.994 E7.20017
G1 X101.952 Y129.608 E7.21982
G1 X101.502 Y129.196 E7.24011
G1 X101.306 Y129.006 E7.24919
G1 X100.987 Y128.683 E7.26429
G1 X100.541 Y128.212 E7.28586
G1 X100.148 Y127.773 E7.30546
G1 X99.988 Y127.584 E7.31369
G1 X99.677 Y127.199 E7.33016
G1 X99.27 Y126.67 E7.35235
G1 X98.896 Y126.153 E7.37358
G1 X98.732 Y125.911 E7.3833
G1 X98.48 Y125.52 E7.39877
G1 X98.147 Y124.979 E7.4199
G1 X97.874 Y124.509 E7.43798
G1 X97.769 Y124.317 E7.44526
G1 X97.575 Y123.947 E7.45915
G1 X97.208 Y123.19 E7.48713
G1 X96.946 Y122.602 E7.50854
G1 X96.835 Y122.331 E7.51829
G1 X96.677 Y121.92 E7.53293
G1 X96.47 Y121.348 E7.55316
G1 X96.267 Y120.73 E7.5748
G1 X96.18 Y120.434 E7.58506
G1 X96.058 Y119.981 E7.60066
G1 X95.903 Y119.352 E7.62221
G1 X95.762 Y118.69 E7.64472
G1 X95.709 Y118.395 E7.65469
G1 X95.642 Y117.975 E7.66884
G1 X95.556 Y117.354 E7.68969
G1 X95.492 Y116.767 E7.70933
G1 X95.47 Y116.499 E7.71827
G1 X95.441 Y116.024 E7.7341
G1 X95.417 Y115.375 E7.7557
G1 X95.414 Y114.71 E7.77782
G1 X95.422 Y114.399 E7.78817
G1 X95.443 Y113.949 E7.80315
G1 X95.484 Y113.349 E7.82315
G1 X95.537 Y112.792 E7.84176
G1 X95.573 Y112.496 E7.85168
G1 X95.646 Y111.991 E7.86865
G1 X95.749 Y111.388 E7.889
G1 X95.855 Y110.853 E7.90714
G1 X95.914 Y110.59 E7.9161
G1 X96.04 Y110.086 E7.93338
G1 X96.21 Y109.471 E7.9546
G1 X96.371 Y108.943 E7.97296
G1 X96.449 Y108.709 E7.98117
G1 X96.566 Y108.377 E7.99287
G1 X96.694 Y108.037 E8.00496
G1 X96.899 Y107.516 E8.02358
G1 X97.149 Y106.932 E8.04471
G1 X97.273 Y106.665 E8.0545
G1 X97.474 Y106.256 E8.06966
G1 X97.765 Y105.694 E8.0907
G1 X98.082 Y105.125 E8.11237
G1 X98.234 Y104.871 E8.12221
G1 X98.467 Y104.5 E8.13679
G1 X98.816 Y103.968 E8.15795
G1 X99.19 Y103.434 E8.17963
G1 X99.365 Y103.2 E8.18935
G1 X99.635 Y102.854 E8.20395
G1 X100.017 Y102.385 E8.22407
G1 X100.428 Y101.91 E8.24496
G1 X100.63 Y101.69 E8.25489
G1 X100.943 Y101.364 E8.26992
G0 F6000 X101.226 Y101.647
G1 F1200 X101.684 Y101.189 E8.29147
G1 X102.113 Y100.783 E8.31111
G1 X102.332 Y100.588 E8.32086
G1 X102.693 Y100.281 E8.33663
G1 X103.178 Y99.888 E8.35739
G1 X103.629 Y99.543 E8.37627
G1 X103.834 Y99.395 E8.38468
G1 X104.197 Y99.145 E8.39934
G1 X104.753 Y98.779 E8.42148
G1 X105.265 Y98.463 E8.44149
G1 X105.48 Y98.339 E8.44975
G1 X105.881 Y98.12 E8.46495
G1 X106.475 Y97.812 E8.4872
G1 X107.024 Y97.547 E8.50748
G1 X107.305 Y97.422 E8.5177
G1 X107.751 Y97.237 E8.53376
G1 X108.347 Y97.005 E8.55504
