;FLAVOR:Marlin
;TIME:1781
;Filament used: 1.29916m
;Layer height: 0.2
;MINX:86.449
;MINY:71.515
;MINZ:0.2
;MAXX:143.566
;MAXY:158.485
;MAXZ:9.4
;Generated with Cura_SteamEngine 4.12.1
M140 S60
M105
M190 S60
M104 S200
M105
M109 S200
M82 ;absolute extrusion mode
; Ender 3 Custom Start G-code
G92 E0 ; Reset Extruder
G28 ; Home all axes
G1 Z2.0 F3000 ; Move Z Axis up little to prevent scratching of Heat Bed
G1 X0.1 Y20 Z0.3 F5000.0 ; Move to start position
G1 X0.1 Y200.0 Z0.3 F1500.0 E15 ; Draw the first line
G1 X0.4 Y200.0 Z0.3 F5000.0 ; Move to side a little
G1 X0.4 Y20 Z0.3 F1500.0 E30 ; Draw the second line
G92 E0 ; Reset Extruder
G1 Z2.0 F3000 ; Move Z Axis up little to prevent scratching of Heat Bed
G1 X5 Y20 Z0.3 F5000.0 ; Move over to prevent blob squish
G92 E0
G92 E0
G1 F1500 E-6.5
;LAYER_COUNT:47
;LAYER:0
M107
G0 F6000 X100.532 Y78.491 Z0.2
;TYPE:SKIRT
G1 F1500 E0
G1 F1200 X100.733 Y78.245 E0.01057
G1 X100.988 Y77.944 E0.02369
G1 X101.314 Y77.573 E0.04011
G1 X101.719 Y77.136 E0.05993
G1 X101.994 Y76.862 E0.07284
G1 X102.184 Y76.679 E0.08162
G1 X102.368 Y76.506 E0.09002
G1 X102.717 Y76.185 E0.10579
G1 X103.297 Y75.688 E0.13119
G1 X103.516 Y75.513 E0.14052
G1 X103.856 Y75.251 E0.15479
G1 X104.282 Y74.937 E0.17239
G1 X104.8 Y74.578 E0.19336
G1 X105.077 Y74.401 E0.20429
G1 X105.289 Y74.27 E0.21258
G1 X105.543 Y74.118 E0.22242
G1 X105.98 Y73.864 E0.23923
G1 X106.719 Y73.471 E0.26707
G1 X107.023 Y73.324 E0.2783
G1 X107.351 Y73.172 E0.29033
G1 X107.759 Y72.991 E0.30517
G1 X108.45 Y72.712 E0.32996
G1 X108.746 Y72.604 E0.34044
G1 X109.133 Y72.471 E0.35405
G1 X109.628 Y72.311 E0.37135
G1 X110.453 Y72.079 E0.39986
G1 X110.75 Y72.008 E0.41001
G1 X111.13 Y71.925 E0.42295
G1 X111.625 Y71.825 E0.43975
G1 X112.342 Y71.704 E0.46393
G1 X112.633 Y71.665 E0.4737
G1 X113.051 Y71.618 E0.48769
G1 X113.555 Y71.57 E0.50452
G1 X114.391 Y71.522 E0.53238
G1 X114.71 Y71.516 E0.54299
G1 X115.077 Y71.515 E0.55519
G1 X115.557 Y71.522 E0.57116
G1 X116.32 Y71.56 E0.59657
G1 X116.617 Y71.585 E0.60648
G1 X117.028 Y71.627 E0.62022
G1 X117.56 Y71.692 E0.63805
G1 X118.376 Y71.823 E0.66554
G1 X118.672 Y71.882 E0.67558
G1 X119.052 Y71.965 E0.68851
G1 X119.526 Y72.077 E0.70471
G1 X120.095 Y72.227 E0.72428
G1 X120.468 Y72.341 E0.73726
G1 X120.714 Y72.42 E0.74585
G1 X121.005 Y72.518 E0.75606
G1 X121.411 Y72.661 E0.77038
G1 X122.126 Y72.941 E0.79592
G1 X122.431 Y73.073 E0.80697
G1 X122.82 Y73.25 E0.82119
G1 X123.264 Y73.463 E0.83757
G1 X123.956 Y73.826 E0.86356
G1 X124.226 Y73.98 E0.8739
G1 X124.558 Y74.177 E0.88674
G1 X124.982 Y74.439 E0.90331
G1 X125.733 Y74.947 E0.93347
G1 X126.031 Y75.167 E0.94579
G1 X126.292 Y75.366 E0.95671
G1 X126.674 Y75.666 E0.97286
G1 X127.309 Y76.205 E1.00056
G1 X127.499 Y76.379 E1.00913
G1 X127.763 Y76.628 E1.0212
G1 X128.133 Y76.99 E1.03842
G1 X128.45 Y77.314 E1.0535
G1 X128.514 Y77.382 E1.0566
G1 X128.823 Y77.724 E1.07193
G1 X129.128 Y78.08 E1.08752
G1 X129.428 Y78.442 E1.10316
G1 X129.823 Y78.948 E1.12451
G1 X130.089 Y79.319 E1.13969
G1 X130.331 Y79.675 E1.15401
G1 X130.592 Y80.07 E1.16976
G1 X130.939 Y80.629 E1.19164
G1 X131.516 Y81.629 E1.23004
G1 X132.026 Y82.535 E1.26462
G1 X133.32 Y84.687 E1.34814
G1 X134.677 Y86.809 E1.43192
G1 X136.091 Y88.888 E1.51554
G1 X137.56 Y90.919 E1.59891
G1 X139.456 Y93.38 E1.70224
G1 X139.637 Y93.611 E1.712
G1 X139.94 Y94.016 E1.72882
G1 X140.145 Y94.304 E1.74058
G1 X140.306 Y94.538 E1.75003
G1 X140.63 Y95.019 E1.76932
G1 X141.1 Y95.78 E1.79907
G1 X141.308 Y96.161 E1.8135
G1 X141.442 Y96.417 E1.82311
G1 X141.571 Y96.671 E1.83259
G1 X141.838 Y97.215 E1.85274
G1 X142.182 Y97.992 E1.88101
G1 X142.35 Y98.427 E1.89652
G1 X142.458 Y98.725 E1.90706
G1 X142.559 Y99.017 E1.91733
G1 X142.744 Y99.576 E1.93692
G1 X142.988 Y100.429 E1.96643
G1 X143.08 Y100.823 E1.97988
G1 X143.158 Y101.19 E1.99236
G1 X143.218 Y101.494 E2.00267
G1 X143.321 Y102.056 E2.02167
G1 X143.443 Y102.91 E2.05037
G1 X143.459 Y103.065 E2.05555
G1 X143.489 Y103.404 E2.06687
G1 X143.508 Y103.668 E2.07567
G1 X143.524 Y103.953 E2.08517
G1 X143.537 Y104.236 E2.09459
G1 X143.548 Y104.602 E2.10677
G1 X143.565 Y105.947 E2.15151
G1 X143.566 Y106.167 E2.15882
G1 X143.432 Y124.392 E2.765
G1 X143.419 Y125.004 E2.78536
G1 X143.405 Y125.375 E2.79771
G1 X143.348 Y126.388 E2.83146
G1 X143.321 Y126.756 E2.84373
G1 X143.293 Y127.067 E2.85412
G1 X143.166 Y128.015 E2.88593
G1 X143.104 Y128.348 E2.8972
G1 X143.05 Y128.622 E2.90648
G1 X142.974 Y128.981 E2.91869
G1 X142.839 Y129.563 E2.93856
G1 X142.586 Y130.471 E2.96991
G1 X142.485 Y130.774 E2.98053
G1 X142.365 Y131.118 E2.99265
G1 X142.27 Y131.379 E3.00189
G1 X142.076 Y131.893 E3.02016
G1 X141.729 Y132.712 E3.04975
G1 X141.659 Y132.86 E3.05519
G1 X141.505 Y133.173 E3.06679
G1 X141.381 Y133.415 E3.07584
G1 X141.242 Y133.678 E3.08573
G1 X140.945 Y134.221 E3.10632
G1 X140.494 Y134.972 E3.13545
G1 X140.416 Y135.091 E3.14019
G1 X140.211 Y135.392 E3.1523
G1 X139.907 Y135.82 E3.16976
G1 X139.582 Y136.261 E3.18798
G1 X139.396 Y136.506 E3.19821
G1 X139.257 Y136.684 E3.20572
G1 X137.68 Y138.759 E3.29241
G1 X136.204 Y140.817 E3.37664
G1 X134.805 Y142.891 E3.45985
G1 X133.454 Y145.021 E3.54374
G1 X132.164 Y147.19 E3.62768
G1 X131.079 Y149.127 E3.70152
G1 X130.88 Y149.468 E3.71465
G1 X130.661 Y149.826 E3.72861
G1 X130.341 Y150.316 E3.74808
G1 X130.052 Y150.733 E3.76495
G1 X129.701 Y151.211 E3.78468
G1 X129.545 Y151.412 E3.79314
G1 X129.233 Y151.796 E3.80959
G1 X128.908 Y152.178 E3.82628
G1 X128.542 Y152.588 E3.84456
G1 X128.383 Y152.757 E3.85227
G1 X127.959 Y153.183 E3.87226
G1 X127.535 Y153.587 E3.89174
G1 X127.035 Y154.035 E3.91407
G1 X126.838 Y154.201 E3.92264
G1 X126.446 Y154.516 E3.93937
G1 X126.012 Y154.849 E3.95756
G1 X125.398 Y155.288 E3.98266
G1 X125.184 Y155.43 E3.99121
G1 X124.851 Y155.642 E4.00434
G1 X124.404 Y155.916 E4.02177
G1 X123.826 Y156.247 E4.04393
G1 X123.627 Y156.353 E4.05143
G1 X123.183 Y156.577 E4.06797
G1 X122.685 Y156.814 E4.08631
G1 X122.093 Y157.074 E4.10782
G1 X121.881 Y157.16 E4.11543
G1 X121.402 Y157.342 E4.13247
G1 X120.86 Y157.533 E4.15158
G1 X120.26 Y157.725 E4.17254
G1 X120.056 Y157.784 E4.1796
G1 X119.541 Y157.92 E4.19731
G1 X119.006 Y158.047 E4.2156
G1 X118.433 Y158.167 E4.23507
G1 X118.191 Y158.211 E4.24326
G1 X117.642 Y158.296 E4.26173
G1 X117.104 Y158.366 E4.27978
G1 X116.492 Y158.428 E4.30024
G1 X116.261 Y158.445 E4.30794
G1 X115.741 Y158.471 E4.32526
G1 X115.204 Y158.485 E4.34312
G1 X114.545 Y158.483 E4.36504
G1 X114.279 Y158.474 E4.3739
G1 X113.807 Y158.448 E4.38962
G1 X113.274 Y158.407 E4.4074
G1 X112.526 Y158.323 E4.43243
G1 X112.273 Y158.286 E4.44094
G1 X111.856 Y158.217 E4.455
G1 X111.323 Y158.118 E4.47303
G1 X110.64 Y157.968 E4.49628
G1 X110.434 Y157.916 E4.50335
G1 X109.996 Y157.796 E4.51846
G1 X109.457 Y157.636 E4.53716
G1 X108.817 Y157.425 E4.55957
G1 X108.584 Y157.34 E4.56782
G1 X108.128 Y157.162 E4.5841
G1 X107.657 Y156.966 E4.60107
G1 X107.108 Y156.72 E4.62108
G1 X106.888 Y156.614 E4.6292
G1 X106.407 Y156.367 E4.64718
G1 X105.918 Y156.101 E4.6657
G1 X105.393 Y155.796 E4.68589
G1 X105.168 Y155.657 E4.69469
G1 X104.688 Y155.343 E4.71377
G1 X104.272 Y155.055 E4.73059
G1 X103.788 Y154.701 E4.75054
G1 X103.578 Y154.538 E4.75938
G1 X103.163 Y154.198 E4.77722
G1 X102.749 Y153.843 E4.79536
G1 X102.262 Y153.4 E4.81726
G1 X102.08 Y153.224 E4.82568
G1 X101.757 Y152.898 E4.84094
G1 X101.406 Y152.529 E4.85788
G1 X100.912 Y151.973 E4.88262
G1 X100.746 Y151.773 E4.89127
G1 X100.49 Y151.454 E4.90487
G1 X100.157 Y151.021 E4.92304
G1 X99.705 Y150.387 E4.94893
G1 X99.564 Y150.174 E4.95743
G1 X99.361 Y149.856 E4.96998
G1 X99.083 Y149.403 E4.98766
G1 X98.914 Y149.117 E4.99871
G1 X98.274 Y148 E5.04152
G1 X97.085 Y145.976 E5.1196
G1 X95.741 Y143.827 E5.2039
G1 X94.348 Y141.736 E5.28747
G1 X92.914 Y139.708 E5.37008
G1 X91.372 Y137.653 E5.45553
G1 X90.388 Y136.4 E5.50852
G1 X90.091 Y136.003 E5.52501
G1 X89.901 Y135.737 E5.53588
G1 X89.74 Y135.505 E5.54528
G1 X89.408 Y135.014 E5.56499
G1 X88.924 Y134.229 E5.59566
G1 X88.721 Y133.859 E5.6097
G1 X88.581 Y133.593 E5.6197
G1 X88.443 Y133.322 E5.62981
G1 X88.184 Y132.795 E5.64934
G1 X87.843 Y132.028 E5.67726
G1 X87.677 Y131.598 E5.69259
G1 X87.547 Y131.239 E5.70529
G1 X87.441 Y130.93 E5.71615
G1 X87.27 Y130.41 E5.73436
G1 X87.028 Y129.562 E5.76369
G1 X86.923 Y129.114 E5.779
G1 X86.863 Y128.833 E5.78855
G1 X86.809 Y128.562 E5.79774
G1 X86.711 Y128.039 E5.81544
G1 X86.607 Y127.367 E5.83806
G1 X86.591 Y127.238 E5.84238
G1 X86.536 Y126.679 E5.86106
G1 X86.512 Y126.348 E5.8721
G1 X86.496 Y126.08 E5.88103
G1 X86.481 Y125.767 E5.89145
G1 X86.469 Y125.4 E5.90367
G1 X86.45 Y124.091 E5.94721
G1 X86.449 Y123.868 E5.95463
G1 X86.555 Y105.433 E6.56779
G1 X86.563 Y105.048 E6.58059
G1 X86.577 Y104.682 E6.59278
G1 X86.633 Y103.649 E6.62719
G1 X86.66 Y103.27 E6.63982
G1 X86.688 Y102.955 E6.65034
G1 X86.795 Y102.121 E6.67831
G1 X86.872 Y101.689 E6.6929
G1 X86.936 Y101.366 E6.70385
G1 X87.012 Y101.012 E6.7159
G1 X87.149 Y100.423 E6.73601
G1 X87.469 Y99.314 E6.7744
G1 X87.61 Y98.907 E6.78873
G1 X87.706 Y98.641 E6.79813
G1 X87.899 Y98.127 E6.81639
G1 X88.264 Y97.268 E6.84744
G1 X88.47 Y96.846 E6.86305
G1 X88.623 Y96.548 E6.8742
G1 X88.748 Y96.313 E6.88305
G1 X89.018 Y95.817 E6.90183
G1 X89.446 Y95.097 E6.92969
G1 X89.514 Y94.992 E6.93385
G1 X89.72 Y94.685 E6.94615
G1 X89.915 Y94.405 E6.9575
G1 X90.081 Y94.173 E6.96699
G1 X90.401 Y93.738 E6.98495
G1 X90.592 Y93.486 E6.99546
G1 X90.893 Y93.1 E7.01174
G1 X92.447 Y91.051 E7.09728
G1 X93.913 Y88.999 E7.18115
G1 X95.323 Y86.903 E7.26517
G1 X96.657 Y84.792 E7.34823
G1 X97.96 Y82.597 E7.43313
G1 X98.824 Y81.059 E7.4918
G1 X98.941 Y80.845 E7.49992
G1 X99.344 Y80.167 E7.52615
G1 X99.517 Y79.899 E7.53676
G1 X99.76 Y79.539 E7.5512
G1 X100.051 Y79.125 E7.56804
G1 X100.532 Y78.491 E7.5945
G0 F6000 X100.842 Y78.744
G1 F1200 X101.043 Y78.498 E7.60507
G1 X101.288 Y78.208 E7.6177
G1 X101.614 Y77.837 E7.63412
G1 X102.005 Y77.416 E7.65323
G1 X102.272 Y77.15 E7.66577
G1 X102.639 Y76.8 E7.68264
G1 X102.988 Y76.479 E7.69841
G1 X103.547 Y76 E7.72289
G1 X103.766 Y75.825 E7.73222
G1 X104.094 Y75.573 E7.74597
G1 X104.52 Y75.259 E7.76358
G1 X105.02 Y74.912 E7.78382
G1 X105.287 Y74.742 E7.79435
G1 X105.499 Y74.611 E7.80263
G1 X105.744 Y74.464 E7.81214
G1 X106.181 Y74.21 E7.82895
G1 X106.894 Y73.831 E7.85581
G1 X107.198 Y73.684 E7.86704
G1 X107.514 Y73.538 E7.87861
G1 X107.922 Y73.357 E7.89346
G1 X108.587 Y73.088 E7.91732
G1 X108.883 Y72.98 E7.9278
G1 X109.256 Y72.852 E7.94091
G1 X109.751 Y72.692 E7.95822
G1 X110.546 Y72.468 E7.98569
G1 X110.843 Y72.397 E7.99585
G1 X111.209 Y72.317 E8.00831
G1 X111.704 Y72.217 E8.0251
G1 X112.395 Y72.101 E8.04841
G1 X112.686 Y72.062 E8.05817
G1 X113.089 Y72.016 E8.07166
G1 X113.593 Y71.968 E8.0885
G1 X114.399 Y71.922 E8.11535
G1 X114.718 Y71.916 E8.12596
G1 X115.072 Y71.915 E8.13774
G1 X115.552 Y71.922 E8.15371
G1 X116.286 Y71.958 E8.17815
G1 X116.583 Y71.983 E8.18806
G1 X116.98 Y72.024 E8.20134
G1 X117.512 Y72.089 E8.21916
G1 X118.298 Y72.215 E8.24564
G1 X118.594 Y72.274 E8.25568
G1 X118.96 Y72.354 E8.26814
G1 X119.434 Y72.466 E8.28434
G1 X119.982 Y72.611 E8.30319
G1 X120.346 Y72.722 E8.31585
G1 X120.592 Y72.801 E8.32444
G1 X120.872 Y72.895 E8.33426
G1 X121.278 Y73.038 E8.34858
G1 X121.967 Y73.308 E8.37319
G1 X122.272 Y73.44 E8.38425
G1 X122.647 Y73.611 E8.39796
G1 X123.091 Y73.824 E8.41433
G1 X123.758 Y74.173 E8.43937
G1 X124.028 Y74.327 E8.44971
G1 X124.348 Y74.518 E8.46211
G1 X124.772 Y74.78 E8.47868
G1 X125.496 Y75.269 E8.50774
G1 X125.794 Y75.489 E8.52006
G1 X126.045 Y75.681 E8.53057
G1 X126.427 Y75.981 E8.54673
G1 X127.039 Y76.5 E8.57342
G1 X127.229 Y76.674 E8.58199
G1 X127.483 Y76.914 E8.59361
G1 X127.853 Y77.276 E8.61082
G1 X128.159 Y77.588 E8.62536
G1 X128.223 Y77.656 E8.62847
G1 X128.52 Y77.986 E8.64323
G1 X128.82 Y78.335 E8.65854
G1 X129.12 Y78.697 E8.67418
G1 X129.5 Y79.185 E8.69475
G1 X129.759 Y79.546 E8.70953
G1 X129.998 Y79.895 E8.72359
G1 X130.259 Y80.29 E8.73934
G1 X130.592 Y80.83 E8.76044
G1 X131.167 Y81.826 E8.79869
G1 X131.668 Y82.717 E8.83269
G1 X132.973 Y84.887 E8.91691
G1 X134.337 Y87.019 E9.00109
G1 X135.781 Y89.142 E9.08649
G1 X137.235 Y91.153 E9.16903
G1 X139.141 Y93.626 E9.27287
G1 X139.322 Y93.857 E9.28264
G1 X139.614 Y94.248 E9.29887
G1 X139.819 Y94.536 E9.31062
G1 X139.975 Y94.761 E9.31973
G1 X140.299 Y95.242 E9.33902
G1 X140.751 Y95.976 E9.36769
G1 X140.953 Y96.346 E9.38171
G1 X141.087 Y96.602 E9.39132
G1 X141.212 Y96.848 E9.4005
G1 X141.479 Y97.392 E9.42065
G1 X141.811 Y98.14 E9.44787
G1 X141.974 Y98.563 E9.46295
G1 X142.082 Y98.861 E9.47349
G1 X142.179 Y99.143 E9.48341
G1 X142.364 Y99.702 E9.503
G1 X142.6 Y100.523 E9.53141
G1 X142.688 Y100.906 E9.54448
G1 X142.766 Y101.273 E9.55696
G1 X142.824 Y101.566 E9.56689
G1 X142.927 Y102.128 E9.5859
G1 X143.045 Y102.951 E9.61355
G1 X143.061 Y103.106 E9.61873
G1 X143.09 Y103.433 E9.62965
G1 X143.109 Y103.697 E9.63845
G1 X143.125 Y103.972 E9.64762
G1 X143.138 Y104.255 E9.65704
G1 X143.148 Y104.607 E9.66875
G1 X143.165 Y105.952 E9.71349
G1 X143.166 Y106.164 E9.72054
G1 X143.032 Y124.389 E10.32672
G1 X143.019 Y124.995 E10.34688
G1 X143.005 Y125.353 E10.3588
G1 X142.948 Y126.366 E10.39254
G1 X142.922 Y126.72 E10.40435
G1 X142.894 Y127.031 E10.41474
G1 X142.772 Y127.944 E10.44537
G1 X142.712 Y128.271 E10.45643
G1 X142.658 Y128.545 E10.46572
G1 X142.584 Y128.89 E10.47745
G1 X142.449 Y129.472 E10.49733
G1 X142.206 Y130.347 E10.52753
G1 X142.108 Y130.642 E10.53787
G1 X141.988 Y130.986 E10.54999
G1 X141.896 Y131.238 E10.55891
G1 X141.702 Y131.752 E10.57718
G1 X141.367 Y132.541 E10.60569
G1 X141.297 Y132.689 E10.61114
G1 X141.149 Y132.991 E10.62232
G1 X141.025 Y133.233 E10.63137
G1 X140.891 Y133.486 E10.64089
G1 X140.594 Y134.029 E10.66147
G1 X140.159 Y134.753 E10.68957
G1 X140.081 Y134.872 E10.6943
G1 X139.884 Y135.162 E10.70596
G1 X139.585 Y135.583 E10.72313
G1 X139.26 Y136.024 E10.74136
G1 X139.081 Y136.259 E10.75118
G1 X138.935 Y136.446 E10.75907
G1 X137.369 Y138.506 E10.84514
G1 X135.881 Y140.583 E10.93012
G1 X134.463 Y142.684 E11.01442
G1 X133.122 Y144.798 E11.09769
G1 X131.814 Y146.996 E11.18276
G1 X130.73 Y148.932 E11.25656
G1 X130.538 Y149.26 E11.2692
G1 X130.321 Y149.616 E11.28307
G1 X130.012 Y150.088 E11.30183
G1 X129.723 Y150.505 E11.3187
G1 X129.385 Y150.966 E11.33772
G1 X129.229 Y151.167 E11.34618
G1 X128.928 Y151.537 E11.36204
G1 X128.603 Y151.919 E11.37872
G1 X128.25 Y152.313 E11.39632
G1 X128.091 Y152.482 E11.40404
G1 X127.683 Y152.893 E11.4233
G1 X127.259 Y153.297 E11.44278
G1 X126.777 Y153.729 E11.46431
G1 X126.58 Y153.895 E11.47287
G1 X126.203 Y154.199 E11.48898
G1 X125.769 Y154.532 E11.50718
G1 X125.177 Y154.954 E11.53136
G1 X124.963 Y155.096 E11.5399
G1 X124.642 Y155.301 E11.55257
G1 X124.195 Y155.575 E11.57
G1 X123.638 Y155.894 E11.59135
G1 X123.439 Y156 E11.59885
G1 X123.011 Y156.215 E11.61478
G1 X122.513 Y156.452 E11.63313
G1 X121.943 Y156.704 E11.65386
G1 X121.731 Y156.79 E11.66146
G1 X121.269 Y156.964 E11.67788
G1 X120.727 Y157.155 E11.697
G1 X120.149 Y157.341 E11.71719
G1 X119.945 Y157.4 E11.72426
G1 X119.448 Y157.53 E11.74134
G1 X118.913 Y157.657 E11.75963
G1 X118.361 Y157.773 E11.77839
G1 X118.119 Y157.817 E11.78657
G1 X117.591 Y157.899 E11.80435
G1 X117.053 Y157.969 E11.82239
G1 X116.463 Y158.029 E11.84211
G1 X116.232 Y158.046 E11.84982
G1 X115.73 Y158.071 E11.86654
G1 X115.193 Y158.085 E11.8844
G1 X114.559 Y158.083 E11.90549
G1 X114.293 Y158.074 E11.91434
G1 X113.838 Y158.049 E11.9295
G1 X113.305 Y158.008 E11.94728
G1 X112.584 Y157.927 E11.97141
G1 X112.331 Y157.89 E11.97991
G1 X111.929 Y157.824 E11.99346
G1 X111.396 Y157.725 E12.01149
G1 X110.738 Y157.581 E12.0339
G1 X110.532 Y157.529 E12.04096
G1 X110.11 Y157.413 E12.05552
G1 X109.571 Y157.253 E12.07422
G1 X108.954 Y157.049 E12.09583
G1 X108.721 Y156.964 E12.10408
G1 X108.282 Y156.792 E12.11977
G1 X107.811 Y156.596 E12.13673
G1 X107.282 Y156.359 E12.15601
G1 X107.062 Y156.253 E12.16414
G1 X106.598 Y156.016 E12.18146
G1 X106.109 Y155.75 E12.19998
G1 X105.603 Y155.456 E12.21944
G1 X105.378 Y155.317 E12.22824
G1 X104.915 Y155.014 E12.24664
G1 X104.499 Y154.726 E12.26347
G1 X104.034 Y154.385 E12.28265
G1 X103.824 Y154.222 E12.29149
